/* XPM */
static char *_9ddb7fd559d4547a24654cec5e6970aR8U8XtYfMOJym3yd[] = {
/* columns rows colors chars-per-pixel */
"64 64 208 2 ",
"   c #050403",
".  c #0D0E0E",
"X  c #190A04",
"o  c #0F1212",
"O  c #121313",
"+  c #121718",
"@  c #151B1B",
"#  c #1B1D1C",
"$  c #291B0A",
"%  c #211E17",
"&  c #38250C",
"*  c #2B2614",
"=  c #21211F",
"-  c #171F20",
";  c #1A1F20",
":  c #1C2324",
">  c #1E2729",
",  c #1F2829",
"<  c #232422",
"1  c #252726",
"2  c #292926",
"3  c #232B2C",
"4  c #2C2C2B",
"5  c #302F2D",
"6  c #32312E",
"7  c #252F30",
"8  c #292F30",
"9  c #263133",
"0  c #2A3435",
"q  c #2B3738",
"w  c #2D3A3C",
"e  c #353432",
"r  c #373735",
"t  c #3A3936",
"y  c #323C3D",
"u  c #3C3C3A",
"i  c #4B2C0F",
"p  c #563815",
"a  c #67360D",
"s  c #553820",
"d  c #403F3D",
"f  c #674403",
"g  c #42413E",
"h  c #715224",
"j  c #2F3E40",
"k  c #323F41",
"l  c #3A3F40",
"z  c #344244",
"x  c #3B4344",
"c  c #364649",
"v  c #3A4749",
"b  c #37494B",
"n  c #3B4B4D",
"m  c #3C4E51",
"M  c #3E5154",
"N  c #434544",
"B  c #474846",
"V  c #444B4C",
"C  c #4B4D4D",
"Z  c #52504D",
"A  c #434F51",
"S  c #494F50",
"D  c #435355",
"F  c #4B5455",
"G  c #425659",
"H  c #4A5759",
"J  c #455A5D",
"K  c #4B5A5C",
"L  c #575958",
"P  c #525C5D",
"I  c #62625F",
"U  c #465D61",
"Y  c #4A5E61",
"T  c #525F61",
"R  c #4B6265",
"E  c #4D666A",
"W  c #4F696D",
"Q  c #536365",
"!  c #5A6364",
"~  c #536669",
"^  c #5B6769",
"/  c #536A6D",
"(  c #5B6A6D",
")  c #546D71",
"_  c #5B6E71",
"`  c #567175",
"'  c #5B7275",
"]  c #577379",
"[  c #5B757A",
"{  c #5D797D",
"}  c #6B6A67",
"|  c #626A6B",
" . c #72706C",
".. c #616E72",
"X. c #627376",
"o. c #6C7273",
"O. c #637679",
"+. c #647B7E",
"@. c #6A7A7D",
"#. c #747A78",
"$. c #8B5214",
"%. c #B8700E",
"&. c #965722",
"*. c #AC5C25",
"=. c #AA6422",
"-. c #807F7D",
";. c #78817C",
":. c #BD8214",
">. c #C9941B",
",. c #D6A12B",
"<. c #EADB5B",
"1. c #F1E475",
"2. c #5E7D82",
"3. c #637E82",
"4. c #6B7E81",
"5. c #717E80",
"6. c #5E8186",
"7. c #648186",
"8. c #6B8285",
"9. c #658589",
"0. c #6B868A",
"q. c #64898D",
"w. c #6C898D",
"e. c #738385",
"r. c #798485",
"t. c #738689",
"y. c #7A878A",
"u. c #738A8D",
"i. c #7B8B8D",
"p. c #678D92",
"a. c #6B8D91",
"s. c #748E91",
"d. c #7A8E92",
"f. c #6E9195",
"g. c #6F9498",
"h. c #749195",
"j. c #7B9295",
"k. c #749599",
"l. c #7D9699",
"z. c #75999D",
"x. c #7B999D",
"c. c #7C9DA1",
"v. c #7DA1A5",
"b. c #888886",
"n. c #828B8C",
"m. c #91918E",
"M. c #828F91",
"N. c #829295",
"B. c #8B9597",
"V. c #829699",
"C. c #8A9799",
"Z. c #849A9C",
"A. c #8B9B9D",
"S. c #999897",
"D. c #929B9D",
"F. c #839DA1",
"G. c #8B9EA1",
"H. c #929FA1",
"J. c #84A1A5",
"K. c #8DA1A4",
"L. c #86A5A9",
"P. c #8BA6A9",
"I. c #8DAAAD",
"U. c #92A3A5",
"Y. c #9AA6A7",
"T. c #95A6A9",
"R. c #95A9AC",
"E. c #9BABAD",
"W. c #8DADB0",
"Q. c #95ADB0",
"!. c #9EAEB1",
"~. c #9BB2B5",
"^. c #98B5B8",
"/. c #9EB5B9",
"(. c #A7A7A7",
"). c #A2ADAE",
"_. c #A1AFB1",
"`. c #A3B2B4",
"'. c #AAB5B6",
"]. c #A4B6B9",
"[. c #A9B6B8",
"{. c #A4BABC",
"}. c #ACBABC",
"|. c #B1BCBE",
" X c gray75",
".X c #F5EB82",
"XX c #A2BEC0",
"oX c #ACBEC1",
"OX c #B3BFC0",
"+X c #ADC1C4",
"@X c #ADC6C9",
"#X c #B4C2C4",
"$X c #BAC4C5",
"%X c #B3C7CA",
"&X c #BBC7C8",
"*X c #BDCACC",
"=X c #BFCFD1",
"-X c #C2C5C4",
";X c #C2CCCD",
":X c #C5CFD1",
">X c #CBD3D4",
",X c #CAD5D7",
"<X c #D3DADB",
"1X c #D5DADB",
"2X c #D9DFE1",
"3X c #DCE2E3",
"4X c #E5E7E8",
"5X c gray99",
/* pixels */
"[.1X1X,X<X1X,X1X>X>X;X;X,X;X;X;X;X-X;X$X*X#X&X&X;X;X#X&X|.&X}.}.|.&X|.[.*X[.&X}.|.}.|.|.#X}.&XOX}.#X).}.$X&X&X[.&X;X$X|.|.&X&Xi.",
"#Xz.k.k.P./.Q.].[.h.P.9.J.a.` E w./ 9.{ 9.E Y ) { [ ] E 7.J.E J G j.w.J { D K.E ' ' s.E { ) 0.W [ [ W [ l.2.7.M ) 2.Z.0.a.9.x.D ",
"OX] f.c.R.}.Q.'.-XO.l.q.P.h.7.1XZ M ` ) Z.J R.S. .m [ s.) 3.` 4X4 ~ ) Y Z.0.{ #.} K ) R w.a.` (.Z G U ] 7.E 7.| } D [ ` W n w.n ",
":Xf.` ) R.~.{.j.< / R.k.~.P.R.z O J { w.2.9.P.G + ~ 7.7./ 3.G 9 o E ` E 7.) { k O n M M R h.0.v O X.E [ l.{ s.x + Q 9./ ) M 7.D ",
";Xx.) 9.z.{.#XoX`.c.L.R.P.P.x.p.k.E E { 3.9.Z.w.l.0./ u.` s.3.w.W ) G J 3.E [ R M R U E 7.2.] w.4.P.U h.l.] s.J ) 2.[ U ) ) k.D ",
";XQ.a.k.{.0.O.X.Q n A n D V x q k w 0 V q 9 x y 0 q q y q q q q 0 0 q 3 q 3 0 3 > 7 > 0 y y 0 x 7 V 9 q y q x 9 w 9 A.[ R 3.] D ",
";XL.~.3.+Xc.x y 9 # : : : ; # : @ @ + # o + @ + + @ + + + @ + @ + # + o + + + + + + + @ + ; ; : : : @ # : # : # : : `.W / Y ` q ",
":Xc.5X2 ^.k.F ~ T n n z x y q q 3 , @ , 3 ; : > : > 3 3 3 3 : 3 - 3 : : , 3 : ; : > @ 7 3 q y 3 0 0 3 > 4 : > @ : > [.E F u E z ",
";XW.4 y ^.J.D Q ( X.T A P S n z y 0 7 z 9 , q 9 0 9 y q 0 y > 3 > 9 3 9 3 > > > > : > q 9 3 y q q q 9 3 9 3 7 > , > [.) e 2 n c ",
"*XI.W.XX=X7.n X.O.4.t.X.@.^ Q F z v v K y v F w w n k w z z q z 0 V k y z w 3 0 7 9 9 c w k q x x n 0 q k q 0 3 y 3 }.9.J G J K ",
";X~.#X{.XXP.D @.~ { l.l.l.d.@.J b G G G q b ( m b D D n D D c z w n k n j q w j z j M K n D D v c K q v x k x 9 x 0 }.h.9.7.W M ",
"*X^.XX%X%XL.D @.4.+.J.x.P.u.t.) n R _ Y c J G n n Y ( J D Q M J z K z c D z z z J z M J J J / G D X.b D n c c z n k `.P.{ E E c ",
":XI.+X/.XX0.n / 8.V.a.a.|.K.u.) _ R X.X.J J b z n M J R R ( G ~ R X.z z Q z n z n U R D c ' _ Y Y _ c D Q ^ Q H K k [.F.E f.9.K ",
">X{./.=X@Xk.n v t.Z.c.c.P.x.G./ G Y O.M m _ M J J J J M J X.M ( ~ X.J M M n b G m ~ ' J D E n n / ' G J ~ K Y D D v [.F./ ) l.D ",
";XW./.*X,Xh.y ( _ l.Q.c.7.R.7.[ G G ' U J / J n c / c J G Y M X.+.i.J M Y c z R m / { 4.' / M m m 8.G G ( Q Q K K H #XP.W Y Q.m ",
":XI.4XY @Xk.A v t.w.].{.L.I.F.3.b U / R G E e.b z R X.J m +.@.N.t.e._ O./ / E Y G / { { R / E ) / +.' / @.D ~ J ( P OXk.' n w.c ",
":XoXm.1 :X].n ~ d.s.~./.^.~.K.G b k m m R ' ' U w J ' ' G C.i.t.t.A.t.8.8.t./ E G G J J ) +.d.[ ` u.{ +.e.K Y Q ..D &X2.-.L Y v ",
"&XoX{.#X,XQ.K @.i.E.^.#X;X~.F.M n c b G E ' / / m m { J M 0.j.d./ N.u.u.u.G.` R n R 4.) C.C.A.V.w.d.{ N.@.Q @.Y Q H &XJ.] w h.D ",
",X+X%X:X<X}.P i.C.K.{.{.#X].a.m n j c / ) ' / +.m ) +.J ` { j.j.E j.E 4.A.U.{ V.) { w.l.U.Z.E.u.s.C.t./ Y ( @.( _ H #X#XP.7.a.K ",
"<X%X:X<X<X}.T @.D.T.$XoX&X#Xk.E U U b / R 4.8.) M / E { 0.d.d.j.` j.u.3.V.d.G.Z.u.) s.Z.Y.U.K.3.u.C.8.J i.+.i.( 4.D #XoXI.{ 2.Y ",
">X+X*X%X,X|.^ t.U.|.#XoX>XoX].0.K.K.0.{ 0.' 8.R U / ` { j.Z.Z.U.4.l.u.`.T.j.T.3.7.w.V.A.E.A.U.Z.w.j.j.' i.y.i.e.e.m }.{./.P.J.Q ",
">X].*X<X3X}.! X.A.[.#X:X#X&XR.E.E.d.+.W ' +.4.R D { ) 3.U.w./ T.[ j.l.E.Z.K.E.U.0.s.A.G.G.T.E.h.T.E.C.B.d.t.M.4.t.^ &XP.P./.P._ ",
",X{.&XoX<X`.! @.N.|.&X;X;X&X}._.E.j.u.W 7.] w.7.] 0.3.`.s.) [ l.l.A.G.U.Z.l.E.`.U.Y.K.T.E.E.T.U.V.E.U.A.C.8.C.y.e.^ ;X].P.{.#Xe.",
":XoX5Xr +XE.F X.H.[.;X*X>X~.`.Z.{ j.j.0.0.3.j.j.E 3.j.l.U.U.K.) ) j.V.T.!.F.T.T.}.!.T.[._._.T.T.E.E.).C.A.+.i.~ ( T $X&Xy. .`.e.",
"*X*Xx x *XY.V #.i.j.].;X;X$Xl.Z.s.) V.A.w.` Z.A.' s.G.j.G.G.l.G.0.G.V.`.Z.T.`.`.!.`.`.`.}.E.`.U.`.|.Y.H.C.i./ R ' x `.].N u B.( ",
":X;X*XoX:XC.V #.4.E.L.>X&X&X7.u.l./ K.}.V.U.}.V.K.E.l.`.T.`.U.}.Z.`.s.}.`.!.|.l.K.[.`.[.}.`.}.}._.}._._.Y.D.i.( / Q `.a./ 3.Q.e.",
";X#X*X,X{.A.x | r.j._.`.|.}.E.E.[.G.T.`.}.#X|.T./ `.) T.}.E.T.}.E.E.K.[.T.}.H.e.r.e.n.e.y.n.r.@.n.A.`.).Y.N.8._ Q x }.P.6.J.J.Y ",
"&X}.oX;X*XD.y | y.d.).}.$X`.`.l.j.j.0._.u.`.`.T.s.T.+.G.`.u.V.l.Z.`.T.K.E.!.# b.b.b.m.b.S.m.m.b.O V Y.).).D.D.' _ z U.h.2.J./ n ",
"}.$XoX:X#Xn.3 ! o.D.).|.`.u.`.T.V.V.u.}.}.`.V.0.4.A.+.8.`.`.|.E.U.`.T.V.E.`.< 2 e < N t u = } 4 O V ).E.C.y.y.X.Q A E.I.[ 6.w.z ",
"&X#X&X&X*Xn.y o.n.t.U.`.[.`.E.#Xd.K.u.[.[.`.T.u.j.G.0.j.E.}.[.U.u.$X}.`.`.`.< 1 # 2 t t u 4 + # O C Y.%.h s $.8 Y D E.g.x./ ] n ",
";X+X:X&X&Xe.y o.#.y.A.`.!.j.j.T.K.s.E.`.T.E.!.T.T.Z.^ !.#XOX[.#XX.[.`.`._ #X< e # 2 u e g 6 = e . V r.h <.=.% O K H ].` q.a.[ z ",
";X;X4Xu #X5.y | #.X.( T.`.`.E.}.X.`.`.`.#X$X#X`.G.T.T.OX>X*XOX*Xj.OXu.E.T.j.= < # 2 < 4 g t 4 t o N N.r .X&.  O ( H T.2.Q x ` n ",
">X#XL # E.~ 0 K S K O.O.K.s.8.U.X.j.E.E.`.`.&Xu.A.&X|.`.#X`.}.&X}.}.U.T.l.4.# 1 # 5 t 5 5 u 6 2 O V U.#..Xi 1 # y ^ }.) } C R K ",
";X].j.j.l.R 3 P Q K ( 0.Z.4.+.Z.8.K.s.s.`.[.!.l.U.}.T.T.&X#X#X`.T.T.Z.`.[.`.# < % # *.&.*.i 2 4 O V ).;.1.p D > 3 A `.R.j.J ` R ",
";X9.w.h.Y x 3 S K D O.u.K.0.T.K.j.K.' K.G.`.E.E.OX}.`.E.$XT.E.U.}.K.j.!.}.}.= O O # a X *.i = B O x H.#.1.i P y 3 A `.I.].;XQ.~ ",
"T.c R.J.q.z : n H K i.X.U.E.T.V.4.0.Z.`.V.E.E.`.!.[.}.T.E.!.E.!.0.j.j.u.T.!.# # # 4 %.  ,.a e 4 . N A.#.1.p D 0 : ! `.z.p.oXz._ ",
"E.M E M E n : y F K ' d.U.!.E.`.E.E.T.`.}.`.[.E.E.#X}.j.0.l.|.}.!.U.0.' T.' < N 1 1 &.  $.i 2 e . N A.Q <.p D y 3 D }.oXI.I.k.O.",
"`.) F.M Y z @ q x D O.4.Z.`.Z.&X}.}.&X`.|.`.U.`.}.|._.8.l.U.T.K.l.V.E.s.j.{ # g u e >.>.:.i e g o x A.| ,.& K 3 : H ;XL.z.x.P.v ",
"A.R G U m w + 9 k D +.4.s.Z.l.j.[.#X|.|.[.E.`.V.`.|.`.u.l.K.+.j.s.K / ) / ' # t g t N B t 6 1 N . x N.K $.$ L y : x `.#X2.6.z.E ",
"T.) 4X# x z : 3 9 n J t.) T.K.E.Z.}.}.T.`.E.E.[.OX}.!.l.l.u.u.7.7.G K +.` +.< e d u B B e t 4 g o x y.f & X & # 1 D #X+X9.D [ _ ",
"[.J N O m k > 7 0 m n / R ` h.j.l.`.`.`.`.`.U.`.U.!.`.V.u.s.0.V.j.D Y ] / R # 4 5 t B g 6 e g u . x R h     *   - Q #XoXm.C / i.",
"E.] / / J c > 3 0 m m / / R A.l.Z.`.T.G.K.`.`.[.T.`._.U.T.w.8.3.K.4.R ) E E # 1 < e d t e u 4 e . y N.q : .   . 1 | #X*Xf.( ) t.",
"A.) 2.E M z > 9 w m k G E ' Z.j.A.G.T.T.E.T.`.T.V.j.`.G.A.l.V.8.{ [ V.4.{ R = 6 e 6 r u t 6 N # . y 3.0.y.O.e ; 9 | ;XoXv.{.z.' ",
"N.J J J M z : 3 z n D / R 8.G.u.A.K.Z.U.!.s.j.T.u.V.G.u.7.u.d.j.0.R V.` W G = 2 = # = < 1 2 < # . y 0.8.j.A.i.9 8 ^ >X/.L.{.{.8.",
"A.G ] ) c w > 3 7 m b E ) +.8.j.j.A.U.U.l.A.V.7.A.s.u.U.j.0.{ 0.A.0.l.] [ Y 9 : + 1 + : + : : 1 1 v u.8.{ u.i.4...#.;X*XL.*X#X4.",
"`.[ G ) G c @ 7 q z J t.N.) N.t.u.d.A.U.Z.Z.T.A.j.{ E.3.j.j.u.u.j.s.l.9.0.m / G Y E G R J z Y @.O.{ 3.+.u.8.i.8.+.( ;X+X]./.+X' ",
"U.) W ` M k : 3 y D ( t.4.0.+.t.d.u.G.U.l.V.G.Z.l.8.A.A.j.V.` G.j./ j.w.s.v Y 2.Y [ Y ) s.2.w.Z.A.0.+.j.C.i.M.4._ Q *X#X{./.~./ ",
"U./ (.9 m c : : z P K @.O.) / +.N.{ u.u.U.N.d.Z.d.+.0.j.7.7.3.Y V.s.0.7.[ m m 2.D ` l.j.7.) 9.Z.0.s.{ ' +.' t.' Q K #X/.R._ L.G ",
"E.' } + m ^ > 7 q H D _ _ / 4.O.t.4.d.4.u.N.d.U.8.' j.0.0./ 7.] ' 3.[ / ) D / { Y ) D n E [ R ` [ 8.4./ / R 4.R _ P ;Xk.S. .E G ",
"U.s.+.J 3.P 3 w y F D ( ' ~ _ O.i.{ t.+.0.u.8.t.C.{ j.C.7.E G V.w.' w.M M J U ) J W ' G / R D 0.+.{ ) ' ' Y X.R K n #XJ.R y s.n ",
"G.[ E 2.2.n 3 3 q z z ^ X.D @.' ' Y ' Y E / 8.8.i.O.' ) ' J v / 8./ / / R Y J E M { D m R U D C.O./ D X.R Y ~ Q Y c }.` W 2.9.c ",
"E.7.h.{ 7.K : 3 9 x c K ^ M X.Y Y M ~ ~ ( ~ ' O.4./ i.R / Y n _ _ E J D M G Y R J R n / O.D m +.R G c n m m ^ D n n E.` 2.E 2.c ",
"`.[ l.w.2.P : 3 9 9 z H n D ^ n D n J R Q ~ ~ Y ' J K M v v w n Y G R z m n Y J y x M Y _ R G Q Y K c c k c K n z x _.U { 2.9.b ",
"U.E k.9.E T > 1 3 y w D m m K n D Y G K Q Y R ( _ Y Y M n J w x Y G M M m c ^ k q D K n w G c G D z w n j n D q c q U.[ U R ) n ",
"H.W w.K.T.( 1 > > 3 q v D x D v D K R X.^ K ( Q Q n G M z c y G z D G x c z D z k x D Q c D z c q n w v x v V w n 9 K.[ 2.R W w ",
"`./ 4X2 s.X.1 3 3 , w q P j c q m G K D ( J z c K y k K n c q w 0 D D n n q n j 0 z z n v v q F w v k x x x v k w 0 C.] K 0 R q ",
"!.9.N ; 2.Q 1 > 3 , 0 D K j n z m D K Q K K G M G c m Y n c 0 w b w c b D k z w 0 c k v v z V z w z x x k q V 0 9 7 U.E Z e z w ",
"}.f.h.h.7.( S V V V V N V V F C P P P ! ! F F P ! F F H C F V V F F V V V V V C V V N N N x x x u N x x x u N l y x A.` U 9 G w ",
"&Xa.x.}.Q.3X3X1X<X1X<X3X<X1X3X3X3X4X4X4X4X3X3X3X3X1X3X3X1X1X<X>X2X2X3X<X<X<X1X<X<X1X<X<X1X,X,X1X>X<X,X<X1X>X1X>X>X1X>X) U G / c ",
"$Xk.oX].c.P.c.x.h./ ` w.P.F.L.h.~.z.J.f.~.g.6.h.9.{ / { { E Y J 9.l.h.R [ E [ ` E 0.M 2.[ U J { M E J [ s.3.l.R W J 0.n R G J w ",
"[.0.J.{.2.x.{ @. .Y ` a.x.9.x.(.B h.f.x.9.a.~.| L G J ` U 7.W  Xe u.U G ) U l.K I _ [ [ s.3.J o.u O.E [ 3.{ { Q } K 3.M M M ) z ",
"`.a.6.J.k.I.k.n 4 m [ h.J.w.K.2 < ) f.R.x.) k.y 4 c G [ h.x.R t # ' ` U l.R ] 0 < D 3.W s.R { 4 # T G 8.h.R s.x 1 x J J J M J z ",
"$Xc.Q.Q.J.R.6.` { ) [ P.2.` / s.{ x.q.7.x.W h.2.~ 3.` 7.w.9.R R ~ 7.3.E 9.m 9.{ G / ] E ) E ] E c E E E 3.W 7.' G [ R z R M U c ",
"~.n n v D H k n x q q k y x 0 y q y k k q 0 k k x q 3 q q y 9 3 0 q 9 , q 0 9 9 9 , 3 3 9 7 q 0 : q 3 7 0 0 q : 0 y 0 > > 3 , w "
};
