/* XPM */
static char *c94d5c969f30466e9bb988a850f1192ecd5CIFaR0sEYsYKG[] = {
/* columns rows colors chars-per-pixel */
"320 180 225 2 ",
"   c None",
".  c #010101",
"X  c #080705",
"o  c #0C0B0B",
"O  c #120F0D",
"+  c #14110D",
"@  c #151515",
"#  c #1A1A1A",
"$  c #191716",
"%  c #221D1C",
"&  c #201A12",
"*  c #25211D",
"=  c #28201C",
"-  c #241F20",
";  c #222222",
":  c #2B2424",
">  c #2C2829",
",  c #322C2E",
"<  c #352A29",
"1  c #35312C",
"2  c #3C3227",
"3  c #332E32",
"4  c #3B2F34",
"5  c #343133",
"6  c #3A353B",
"7  c #393538",
"8  c #47392A",
"9  c #463C39",
"0  c #4D433B",
"q  c #484336",
"w  c #54453C",
"e  c #554B36",
"r  c #765A3A",
"t  c #795D3C",
"y  c #725837",
"u  c #7D613F",
"i  c #3D3B46",
"p  c #423E44",
"a  c #423E4A",
"s  c #483F45",
"d  c #454245",
"f  c #43414D",
"g  c #4D494E",
"h  c #494247",
"j  c #5A4B41",
"k  c #554B4B",
"l  c #595148",
"z  c #444452",
"x  c #4D4B54",
"c  c #4A4D5A",
"v  c #484954",
"b  c #524D54",
"n  c #524E59",
"m  c #594F55",
"M  c #4D505D",
"N  c #555156",
"B  c #5C5354",
"V  c #56535B",
"C  c #5B555C",
"Z  c #5D595E",
"A  c #5B5B51",
"S  c #64534C",
"D  c #675348",
"F  c #745B4E",
"G  c #635553",
"H  c #645954",
"J  c #6D5C53",
"K  c #60575C",
"L  c #635B5D",
"P  c #695E5D",
"I  c #7B5F51",
"U  c #715F58",
"Y  c #614E45",
"T  c #7E6141",
"R  c #6B615C",
"E  c #6D6C56",
"W  c #766156",
"Q  c #7C6255",
"!  c #74625C",
"~  c #7C665A",
"^  c #7E695E",
"/  c #6F6142",
"(  c #5B5660",
")  c #5D5B62",
"_  c #515460",
"`  c #635D63",
"'  c #685F64",
"]  c #646166",
"[  c #6B6365",
"{  c #656369",
"}  c #6C6569",
"|  c #6D696C",
" . c #696965",
".. c #736565",
"X. c #7A6764",
"o. c #776967",
"O. c #7D6B64",
"+. c #736769",
"@. c #746A6A",
"#. c #7A6B69",
"$. c #786768",
"%. c #747470",
"&. c #83633E",
"*. c #836642",
"=. c #856943",
"-. c #8B6B45",
";. c #8E6D49",
":. c #94734B",
">. c #9A764C",
",. c #9B794D",
"<. c #937146",
"1. c #806A5E",
"2. c #81675A",
"3. c #9C7C52",
"4. c #987650",
"5. c #8C724A",
"6. c #A17D4F",
"7. c #A17D51",
"8. c #806D62",
"9. c #807064",
"0. c #A58254",
"q. c #AB8455",
"w. c #AC8B5B",
"e. c #AA8859",
"r. c #B28C5B",
"t. c #B1875A",
"y. c #BC935F",
"u. c #B5935F",
"i. c #8C8876",
"p. c #BB9462",
"a. c #B89966",
"s. c #AB996B",
"d. c #BBA36C",
"f. c #BDA875",
"g. c #978054",
"h. c #C1935F",
"j. c #C59B64",
"k. c #C89B67",
"l. c #C6A166",
"z. c #CBA46B",
"x. c #C7A56D",
"c. c #D3A66C",
"v. c #D7AA6D",
"b. c #C7AA77",
"n. c #D3AC73",
"m. c #DBAC71",
"M. c #CDB17A",
"N. c #DBB374",
"B. c #D6B77A",
"V. c #E4B474",
"C. c #E3BA7C",
"Z. c #ECBC7D",
"A. c #EAB777",
"S. c #F1BC7C",
"D. c #DEC27E",
"F. c #E9C27F",
"G. c #979797",
"H. c #8F8F87",
"J. c #ACA992",
"K. c #B3B3AE",
"L. c #CDB583",
"P. c #CCB887",
"I. c #D5BC85",
"U. c #D4BF94",
"Y. c #E3BF81",
"T. c #DCCC9A",
"R. c #D9C694",
"E. c #DFD39C",
"W. c #D1C18B",
"Q. c #E3C686",
"!. c #E8CA87",
"~. c #F3CC85",
"^. c #FACC86",
"/. c #ECD28B",
"(. c #F8D48B",
"). c #E6CD94",
"_. c #E9D597",
"`. c #FCDC93",
"'. c #F2DB9A",
"]. c #F6D992",
"[. c #FBE49B",
"{. c #FAE59A",
"}. c #FEF09F",
"|. c #DECEA4",
" X c #D1D0AC",
".X c #E9DAA7",
"XX c #EBDDB6",
"oX c #F6DFA0",
"OX c #EEE3AA",
"+X c #FCEBA4",
"@X c #FBEDAB",
"#X c #F7E6A6",
"$X c #FEF2A5",
"%X c #FEF3AC",
"&X c #FEFAAC",
"*X c #F7EBB7",
"=X c #FEF4B3",
"-X c #FEFAB6",
";X c #FEF5BC",
":X c #FEFCBC",
">X c #F3F3BB",
",X c #D3D4CD",
"<X c #EBE2C4",
"1X c #F4ECC7",
"2X c #FEFDC4",
"3X c #FEFDCB",
"4X c #FBF4C8",
"5X c #FEFDD3",
"6X c #FBF6DC",
"7X c #FEFEDB",
"8X c #F8F3D5",
"9X c #E7E8D4",
"0X c #EBEBE8",
"qX c #FEFEE3",
"wX c #FEFFEB",
"eX c #FFFFF2",
"rX c #FEFFF5",
"tX c #FEFFF4",
"yX c #FFFFFA",
"uX c #FFFFFD",
"iX c white",
"pX c #FFFFFE",
"aX c #FEFFFE",
"sX c #FFFFFE",
"dX c #F5F5F2",
/* pixels */
"                                                                                                                                                                                                                                                                                                                                                                                                                                                                                                                                                                                                                                                                ",
"                                                                                                                                                                                                                                                                                                                                                                                                                                                                                                                                                                                                                                                                ",
"                                                                                                                                                                                                                                                                                                                                                                                                                                                                                                                                                                                                                                                                ",
"                                                                                                                                                                                                                                                                                                                                                                                                                                                                                                                                                                                                                                                                ",
"                                                                                                                                                                                                                                                                                                                                                                                                                                                                                                                                                                                                                                                                ",
"                                                                                                                                                                                                                                                                                                                                                                                                                                                                                                                                                                                                                                                                ",
"                                                                                                                                                                                                                                                                                                                                                                                                                                                                                                                                                                                                                                                                ",
"                                                                                                                                                                                                                                                                                                                                                                                                                                                                                                                                                                                                                                                                ",
"                                                                                                                                                                                                                                                                                                                                                                                                                                                                                                                                                                                                                                                                ",
"                                                                                                                                                                                                                                                                                                                                                                                                                                                                                                                                                                                                                                                                ",
"                                                                                                                                                                                                                                                                                                                                                                                                                                                                                                                                                                                                                                                                ",
"                                                                                                                                                                                                                                                                                                                                                                                                                                                                                                                                                                                                                                                                ",
"                                                                                                                                                                                                                                                                                                                                                                                                                                                                                                                                                                                                                                                                ",
"                                                                                                                                                                                                                                                                                                                                                                                                                                                                                                                                                                                                                                                                ",
"                                                                                                                                                                                                                                                                                                                                                                                                                                                                                                                                                                                                                                                                ",
"                                                                                                                                                                                                                                                                                                                                                                                                                                                                                                                                                                                                                                                                ",
"                                                                                                                                                                                                                                                                                                                                                                                                                                                                                                                                                                                                                                                                ",
"                                                                                                                                                                                                                                                                                                                                                                                                                                                                                                                                                                                                                                                                ",
"                                                                                                                                                                                                                                                                                                                                                                                                                                                                                                                                                                                                                                                                ",
"                                                                                                                                                                                                                                                                                                                                                                                                                                                                                                                                                                                                                                                                ",
"                                                                                                                                                                                                                                                                                                                                                                                                                                                                                                                                                                                                                                                                ",
"                                                                                                                                                                                                                                                                                                                                                                                                                                                                                                                                                                                                                                                                ",
"                                                                                                                                                                                                                                                                                                                                                                                                                                                                                                                                                                                                                                                                ",
"                                                                                                                                                                                                                                                                                                                                                                                                                                                                                                                                                                                                                                                                ",
"                                                                                                                                                                                                                                                                                                                                                                                                                                                                                                                                                                                                                                                                ",
"                                                                                                                                                                                                                                                                                                                                                                                                                                                                                                                                                                                                                                                                ",
"                                                                                                                                                                                                                                                                                                                                                                                                                                                                                                                                                                                                                                                                ",
"                                                                                                                                                                                                                                                                                                                                                                                                                                                                                                                                                                                                                                                                ",
"                                                                                                                                                                                                                                                                                                                                                                                                                                                                                                                                                                                                                                                                ",
"                                                                                                                                                                                                                                                                                                                                                                                                                                                                                                                                                                                                                                                                ",
"                                                                                                                                                                                                                                                                                                                                                                                                                                                                                                                                                                                                                                                                ",
"                                                                                                                                                                                                                                                                                                                                                                                                                                                                                                                                                                                                                                                                ",
"                                                                                                                                                                                                                                                                                                                                                                                                                                                                                                                                                                                                                                                                ",
"                                                                                                                                                                                                                                                                                                                                                                                                                                                                                                                                                                                                                                                                ",
"                                                                                                                                                                                                                                                                                                                                                                                                                                                                                                                                                                                                                                                                ",
"                                                                                                                                                                                                                                                                                                                                                                                                                                                                                                                                                                                                                                                                ",
"                                                                                                                                                                                                                                                                                                                                                                                                                                                                                                                                                                                                                                                                ",
"                                                                                                                                                                                                                                                                                                                                                                                                                                                                                                                                                                                                                                                                ",
"                                                                                                                                                                                                                                                                                                                                                                                                                                                                                                                                                                                                                                                                ",
"                                                                                                                                                                                                                                                                                                                                                                                                                                                                                                                                                                                                                                                                ",
"                                                                                                                                                                                                                                                                                                                                                                                                                                                                                                                                                                                                                                                                ",
"                                                                                                                                                                                                                                                                                                                                            7.p.x.e.,.                                                                                                                                                                                                                                                                                                          ",
"                                                                                                                                                                                                                                                                                                                                          ,.M.oX#X'.B.w.:.                                                                                                                                                                                                                                                                                                      ",
"                                                                                                                                                                                                                                                                                                                                        4.x.'.5X7X3X=X/.z.-.                                                                                                                                                                                                                                                                                                    ",
"                                                                                                                                                                                                                                                                                                                                        w.).3XeXyXwX5X:X'.x.&.                                                                                                                                                                                                                                                                                                  ",
"                                                                                                                                                                                                                                                                                                                                        a.+X7XyXpXyXeXqX2X/.w.-.y                                                                                                                                                                                                                                                                                               ",
"                                                                                                                                                                                                                                                                                                                                        a.#X7XpXpXpXpXyX7X@XN.t.-.u                                                                                                                                                                                                                                                                                             ",
"                                                                                                                                                                                                                                                                                                                                        3.!.2XwXpXpXpXpXwX;X/.v.y.:.                                                                                                                                                                                                                                                                                            ",
"                                                                                                                                                                                                                                                                                                                                          l.'.3XeXpXpXpXrX7X%X].Z.j.:.                                                                                                                                                                                                                                                                                          ",
"                                                                                                                                                                                                                                                                                                                                          <.N.'.3XeXpXpXyXwX5X:X$X!.r.&.                                                                                                                                                                                                                                                                                        ",
"                                                                                                                                                                                                                                                                                                                                            >.l.'.5XeXpXpXyXeXqX3X%XC.>.&.                                                                                                                                                                                                                                                                                      ",
"                                                                                                                                                                                                                                                                                                                                              <.j.#X5XrXpXpXyXrXqX2X+XB.l.p.7.:.                                                                                                                                                                                                                                                                                ",
"                                                                                                                                                                                                                                                                                                                                              r q.!.-X7XrXpXpXyXeXqX3X=X@X#X_.n.3.*.                                                                                                                                                                                                                                                                            ",
"                                                                                                                                                                                                                                                                                                                                              r 7.V.[.:X7XyXpXpXpXrXwXwXwXwX5X*XQ.p.-.t                                                                                                                                                                                                                                                                         ",
"                                                                                                                                                                                                                                                                                                                                              r >.c.`.&X5XrXpXpXpXpXpXpXpXpXpXwX3X'.M.q.-.t                                                                                                                                                                                                                                                                     ",
"                                                                                                                                                                                                                                                                                                                                              r ,.c.{.:XqXyXpXpXpXpXpXpXpXpXpXpXrX7X*XQ.j.q.:.T                                                                                                                                                                                                                                                                 ",
"                                                                                                                                                                                                                                                                                                                                              r >.N.+X5XrXpXpXpXpXpXpXpXpXpXpXpXpXyXwX;X'.F.c.t.T                                                                                                                                                                                                                                                               ",
"                                                                                                                                                                                                                                                                                                                                                ,.N.$X5XrXpXpXpXpXpXpXpXpXpXpXyXpXpXpXwX3X%X`.N.7.                                                                                                                                                                                                                                                              ",
"                                                                                                                                                                                                                                                                                                                                                -.l.{.2XqXeXpXpXpXpXpXpXpXpXpXpXpXpXpXpXwX7X:X].k.-.                                                                                                                                                                                                                                                            ",
"                                                                                                                                                                                                                                                                                                                                                  0.n.@X3XqXyXpXpXpXpXpXpXpXpXpXpXpXpXpXpXrX7X=X!.y.-.                                                                                                                                                                                                                                                          ",
"                                                                                                                                                                                                                                                                                                                                                    y.'.3XwXpXpXpXpXpXpXpXpXpXpXpXpXpXpXpXpXrX7X%X!.y.>.y                                                                                                                                                                                                                                                       ",
"                                                                                                                                                                                                                                                                                                                                                    r.#XqXyXpXpXpXpXpXpXpXpXpXpXpXpXpXpXpXpXpXrX5X+XF.y.>.<.-.u                                                                                                                                                                                                                                                 ",
"                                                                                                                                                                                                                                                                                                                                                    d.*XwXpXpXpXpXpXpXpXpXpXpXpXpXpXpXpXpXpXpXpXwX2X{.F.N.n.k.t.:.&.                                                                                                                                                                                                                                            ",
"                                                                                                                                                                                                                                                                                                                                                  <.I.5XrXpXpXpXpXpXpXpXpXpXpXpXpXpXpXpXpXpXpXpXrX7X-X+X@X@X{.F.z.w.:.                                                                                                                                                                                                                                          ",
"                                                                                                                                                                                                                                                                                                                                                  ,.Q.5XpXpXpXpXpXpXpXpXpXpXpXpXpXpXpXpXpXpXpXpXpXwX5X5X7X7X3X%X{.!.p.<.                                            ;.                                                                                                                                                                                          ",
"                                                                                                                                                                                                                                                                                                                                                  <.!.5XyXpXpXpXpXpXpXpXpXpXpXpXpXpXpXpXpXpXyXpXpXpXrXrXyXyXwX5X:X$X!.p.*.                                      B.n.e.                                                                                                                                                                                          ",
"                                                                                                                                                                                                                                                                                                                                                  <.B.5XyXpXpXpXpXpXpXpXpXpXpXpXpXpXpXpXpXpXpXpXpXpXpXpXpXpXyXwX5X:X[.n.:.                                    Q./.M.                                                                                                                                                                                            ",
"                                                                                                                                                                                                                                                                                                                                                  >.D.3XrXpXpXpXpXpXpXpXpXpXpXpXpXpXpXpXpXpXpXpXpXpXpXpXpXpXpXyXwX3X%XC.:.                                  n.!.!.                                                                                                                                                                                              ",
"                                                                                                                                                                                                                                                                                                                                              -.>.p./.2XrXpXyXpXpXpXpXpXpXpXpXpXpXpXpXpXpXpXpXpXpXpXpXpXpXpXpXpXwX5X%XB.>.                            7.u.k.C.Y.                                                                                                                                                                                                ",
"                                                                                                                                                                                                                                                                                                                                            *.6.k.C.{.2XeXpXpXpXpXpXpXpXpXpXpXpXpXpXpXpXpXpXpXpXpXpXpXpXpXpXpXyXwX3X[.x.-.                        u.M._./.].B.                                                                                                                                                                                                  ",
"                                                                                                                                                                                                                                                                                                                                            :.y.V.(.}.2XeXpXpXpXpXpXpXpXpXpXpXpXpXpXpXpXpXpXpXpXpXpXpXpXpXpXpXyX7X:X].k.<.                    3.a.T.4X3X-X!.a.                                                                                                                                                                                                  ",
"                                                                                                                                                                                                                                                                                                                                            -.p.V.(.$X2XwXpXpXpXpXpXpXpXpXpXpXpXpXpXpXpXpXpXpXpXpXpXpXpXpXpXpXrX5X%X~.j.<.                  0.b..X5XrXqX=XB.                                                                                                                                                                                                    ",
"                                                                                                                                                                                                                                                                                                                                            u 7.v.(.$X3XwXpXpXpXpXpXpXpXpXpXpXpXpXpXpXpXpXpXpXpXpXpXpXpXpXpXpXrX5X%X~.k.;.            a.b.M.U.4XwXyXyX8XW.                                                                                                                                                                                                      ",
"                                                                                                                                                                                                                                                                                                                                              -.k.~.%X5XrXpXpXpXpXpXpXpXpXpXpXpXpXpXpXpXpXpXpXpXpXpXpXpXpXpXpXrX5X=X(.k.;.          M..X4X8XqXrXpXpXeXOXa.                                                                                                                                                                                                      ",
"                                                                                                                                                                                                                                                                                                                                              -.y.~.=X7XrXpXpXpXpXpXpXpXpXpXpXpXpXpXpXpXpXpXpXpXpXpXpXpXpXpXpXrX7X-X].k.;.          XX6XrXyXpXpXyXpXwX.X3.                                                                                                                                                                                                      ",
"                                                                                                                                                                                                                                                                                                                                              =.y.~.%X3XeXpXpXpXpXpXpXpXpXpXpXpXpXpXpXpXpXpXpXpXpXpXpXpXpXpXpXpXwX2X+XB.,.        P.8XpXpXpXpXpXyXpXqX_.w.                                                                                                                                                                                                      ",
"                                                                                                                                                                                                                                                                                                                                              *.p.!.+X2X7XeXpXpXpXpXpXpXpXpXpXpXpXpXpXpXpXpXpXpXpXpXpXpXpXpXpXpXyXwX5X@Xd.>.    P.1XeXpXpXpXpXpXpXpXqX_.w.                                                                                                                                                                                                      ",
"                                                                                                                                                                                                                                                                                                                                              =.w.C.{.&X2X7XwXrXrXpXpXpXpXpXpXpXpXpXpXpXpXpXpXpXpXpXpXpXpXpXpXpXpXpXrXqX#Xz.0.L.XXwXpXpXpXpXpXyXpXeX1XR.                                                                                                                                                                                                        ",
"                                                                                                                                                                                                                                                                                                                                              r ,.z.~.[.$X=X2X3X7XwXyXpXpXpXpXpXpXpXpXpXpXpXpXpXpXpXpXpXpXpXpXpXyXpXpXpX7X#X_.<XrXpXpXpXpXpXeXwX8X1XXX                                                                                                                                                                                                          ",
"                                                                                                                                                                                                                                                                                                                                                =.0.c.Z.~.(.`.[.%X2XqXrXpXpXpXpXpXpXpXpXpXpXpXpXpXpXpXpXpXpXpXpXpXpXpXpXrX5XqXyXpXpXpXpXpXrX5XOXT.                                                                                                                                                                                                              ",
"                                                                                                                                                                                                                                                                                                                                                  ;.0.j.c.V.S.^.{.&X2XqXeXyXpXpXpXpXpXpXpXpXpXpXpXpXpXpXpXpXpXpXpXpXpXpXpXyXyXpXpXpXpXpXpXqX.X                                                                                                                                                                                                                  ",
"                                                                                                                                                                                                                                                                                                                                                    5.q.j.m.Z.^.`.}.&X2X7XqXeXyXpXpXpXpXpXpXpXpXpXpXpXpXpXpXpXpXpXpXpXpXpXpXpXpXpXpXpXpXyX4Xb.                                                                                                                                                                                                                  ",
"                                                                                                                                                                                                                                                                                                                                                    *.0.k.V.^.(.`.`.{.$X-X2X3X7XqXwXrXpXpXpXpXpXpXpXpXpXpXpXpXpXpXpXpXpXpXpXpXpXpXpXpXpXwX*Xx.                                                                                                                                                                                                                  ",
"                                                                                                                                                                                                                                                                                                                                                    T 3.k.A.^.^.^.^.^.~.`.{.+X+X:X5XwXpXpXpXpXpXpXpXpXpXpXpXpXpXpXpXpXpXpXpXpXpXpXpXpXpXwX;Xx.                                                                                                                                                                                                                  ",
"                                                                                                                                                                                                                                                                                                                                                      >.p.v.A.Z.Z.V.v.c.c.m.V.F.{.2XwXpXyXpXpXpXpXpXpXpXpXpXpXpXpXpXpXpXpXpXpXpXpXpXpXpXwXOXa.                                                                                                                                                                                                                  ",
"                                                                                                                                                                                                                                                                                                                                                      *.>.t.j.k.k.p.r.q.q.r.h.m.].2XwXpXpXpXpXpXpXpXpXpXpXpXpXpXpXpXpXpXpXpXpXpXpXpXpXpX7XI.                                                                                                                                                                                                                    ",
"                                                                                                                                                                                                                                                                                                                                                        t -.;.:.3.,.,.>.4.q.j.F.@X5XeXpXpXpXpXpXpXpXpXpXpXpXpXpXpXpXpXpXpXpXpXpXpXpXpXeX*Xx.                                                                                                                                                                                                                    ",
"                                                                                                                                                                                                                                                                                                                                                              t u *.=.-.;.7.n.#X7XeXpXpXpXpXpXpXpXpXpXpXpXpXpXpXG.G.G.pXpXpXpX,X0X0XdX6X[.r.                                                                                                                                                                                                                    ",
"                                                                                                                                                                                                                                                                                                                                                                  r t u *.<.n.;XeXpXpXpXpXpXpXpXpXpXpXpXpX%.) N k l l e H H.G.K.,X,X9X>X/.p.                                                                                                                                                                                                                    ",
"                                                                                                                                                                                                                                                                                                                                                                    y t T ,.c.;XeXpXpXpXpXpXpXpXpXpXpX .d > @ @ # o @ # , g  .H.G.K. XE.B.0.                                                                                                                                                                                                                    ",
"                                                                                                                                                                                                                                                                                                                                                                        &.q.C.;XeXpXpXpXpXpXpXpXpXpXq * # # # # # # # # # # * q E i.s.s.3.                                                                                                                                                                                                                      ",
"                                                                                                                                                                                                                                                                                                                                                                          3.!.2XeXpXpXpXpXpXpXpXpXA % # # # # # # # @ @ @ # ; # = 8 q 8                                                                                                                                                                                                                         ",
"                                                                                                                                                                                                                                                                                                                                                                          a.{.5XyXpXpXpXpXpXpXpX%.1 # # # # # # # # @ @ @ # # # # @ X                                                                                                                                                                                                                           ",
"                                                                                                                                                                                                                                                                                                                                                                          b.;XwXpXpXpXpXpXpXpXi.l $ # # # # # # # # @ @ @ # # # # @ X .                                                                                                                                                                                                                         ",
"                                                                                                                                                                                                                                                                                                                                                                        ,.I.4XrXpXpXpXpXpXpXJ.i.0 # # # # # # # # # @ @ @ # # # # # O . .                                                                                                                                                                                                                       ",
"                                                                                                                                                                                                                                                                                                                                                                      a.L.<XeXpXpXpXpXpXpXpXK.H.q # # # # # # # # # @ @ @ # # # # # # O . .                                                                                                                                                                                                                     ",
"                                                                                                                                                                                                                                                                                                                                                                    b.|.6XeXpXpXpXpXpXpXpXpX,XG.e O @ # # # # # # # # # # # # # # # ; @ . . .                                                                                                                                                                                                                   ",
"                                                                                                                                                                                                                                                                                                                                                                  P.<XeXyXpXpXpXpXpXpXpXpX0X,XJ./ & @ # # # # # # @ @ @ @ @ # # $ $ # # @ X . .                                                                                                                                                                                                                 ",
"                                                                                                                                                                                                                                                                                                                                                              f.|.6XyXpXpXpXpXpXpXpXpXpXyXdX,XJ.5.2 o @ # # # # # @ @ @ @ # # # # # $ # # # @ X .                                                                                                                                                                                                               ",
"                                                                                                                                                                                                                                                                                                                                                            L..X7XyXpXpXpXpXpXpXpXpXpXpXpXdX9XP.g.8 X o # # # @ # # # # # # # # # # # # # # # @ X .                                                                                                                                                                                                             ",
"                                                                                                                                                                                                                                                                                                                                                    b.L.T.E.1X7XyXpXpXpXpXpXpXpXpXpXpXpXyX8X.Xa.=.2 . . @ @ @ # # # # @ # # # # # # # # # # # # @ .                                                                                                                                                                                                             ",
"                                                                                                                                                                                                                                                                                                                                                  ).XX6X6XwXeXpXpXpXpXyXpXpXpXpXpXyXeXwX<XT.s.*.8 O . . o @ # # # # # # @ @ $ @ # # # # # # # # # o .                                                                                                                                                                                                           ",
"                                                                                                                                                                                                                                                                                                                                                R.1XrX0XrXyXpXrXeXwX6XqXwXeXwX7X7X1X*XR.b.3.      . . @ # # # # # # # # @ @ @ @ @ # # # # # # # # @ . .                                                                                                                                                                                                         ",
"                                                                                                                                                                                                                                                                                                                                            f.T.5XqXqX8X7X7X7X4XXXR.).[.@X*XT.R.P.L.              . @ # # # # # # # # # # @ @ @ @ @ # # # # # # # @ . .                                                                                                                                                                                                         ",
"                                                                                                                                                                                                                                                                                                                                          ).OX2X4X*XR.L.M.).).I.a.>.6.x.B.d.                      X @ # # @ @ # # # # # # # @ @ @ @ # # # # # # # # @ . .                                                                                                                                                                                                       ",
"                                                                                                                                                                                                                                                                                                                                      a.I.@X@X.XR.d.    -.q.w.                                    # # # # @ @ # # # # # # # # @ @ @ @ @ # # # # # # # o . .                                                                                                                                                                                                     ",
"                                                                                                                                                                                                                                                                                                                                    :.a.Q.).I.                                                    o @ # # # @ # # # # # # # # @ @ @ @ @ # # # # # # # # o . .                                                                                                                                                                                                   ",
"                                                                                                                                                                                                                                                                                                                                      e.                                                          . @ # # # # # # # # # # # # # @ @ @ @ @ # # # # # # # # o . .                                                                                                                                                                                                 ",
"                                                                                                                                                                                                                                                                                                                                                                                                  . o # # # # # # # # # # # # # # # @ @ @ @ # # # # # # # # o .                                                                                                                                                                                                 ",
"                                                                                                                                                                                                                                                                                                                                                                                                  . X @ # # # # # # # # # # # # # # # @ @ @ @ # # # # # # # # o .                                                                                                                                                                                               ",
"                                                                                                                                                                                                                                                                                                                                                                                                    . o # # # # # # # # # # # # # # @ @ @ @ @ @ # # # # # # ; @ . .                                                                                                                                                                                             ",
"                                                                                                                                                                                                                                                                                                                                                                                                    . o # # # # @ # # # # # # # # # # @ @ @ @ @ @ # # # # # # # @ . .                                                                                                                                                                                           ",
"                                                                                                                                                                                                                                                                                                                                                                                                    . . o # # @ @ $ # # # # # # # # # @ @ @ @ @ @ # # # # # # # # @ . .                                                                                                                                                                                         ",
"                                                                                                                                                                                                                                                                                                                                                                                                      . o # # # # # # # # # # # # # # # @ @ @ @ @ @ # # # # # # # # @ . .                                                                                                                                                                                       ",
"                                                                                                                                                                                                                                                                                                                                                                                                      . @ # $ # # # @ # # # # # # # # # # @ @ @ @ @ # # # # # # # # ; @ . .                                                                                                                                                                                     ",
"                                                                                                                                                                                                                                                                                                                                                                                                      . @ # # # # @ @ @ # # # # # # # # # # @ @ @ @ @ @ # # # # # # # # o . .                                                                                                                                                                                   ",
"                                                                                                                                                                                                                                                                                                                                                                                                      . o @ # # # # @ @ @ # # # # # # # # # @ @ @ @ @ @ @ # # # # # # # # o .                                                                                                                                                                                   ",
"                                                                                                                                                                                                                                                                                                                                                                                                      . . @ # # # # @ @ @ @ # # # # # # # # # @ @ @ @ @ @ @ # # # # # # # # o .                                                                                                                                                                                 ",
"                                                                                                                                                                                                                                                                                                                                                                                                      . . X @ # # # # @ @ @ # # # # # # # # # # @ @ @ @ @ @ # # # # # # # # # o .                                                                                                                                                                               ",
"                                                                                                                                                                                                                                                                                                                                                                                                      . . o @ # # # # # @ @ @ # # # # # # # # # @ @ @ @ @ @ @ # # # # # # # ; @ . .                                                                                                                                                                             ",
"                                                                                                                                                                                                                                                                                                                                                                                                      . @ # # # # # # # @ @ @ @ # # # # # # # # # @ @ @ @ @ @ @ # # # # # # # # @ . .                                                                                                                                                                           ",
"                                                                                                                                                                                                                                                                                                                                                                                                      . o # # # # # # # # @ @ @ # # # # # # # # # # @ @ @ @ @ @ @ # # # # # # # # @ . .                                                                                                                                                                         ",
"                                                                                                                                                                                                                                                                                                                                                                                                      . o # # # # # # # # @ @ # * ; # # # # # # # # @ @ @ @ @ @ @ @ # # # # # # # # @ . .                                                                                                                                                                       ",
"                                                                                                                                                                                                                                                                                                                                                                                                    . . o @ # # # # # # # # > 0 l j 4 # # # # # # # # @ @ @ @ @ @ @ # # # # # # # # ; @ . .                                                                                                                                                                     ",
"                                                                                                                                                                                                                                                                                                                                                                                                    . . o @ # # # # # # # 1 H J H H S 7 # # # # # # # # @ @ @ @ @ @ @ @ # # # # # # # # X . .                                                                                                                                                                   ",
"                                                                                                                                                                                                                                                                                                                                                                                                    . . o @ # # # # # # 1 H R R R P G l : # # # # # # # # @ @ @ @ @ @ @ # # # # # # # # @ X . . . .                                                                                                                                                             ",
"                                                                                                                                                                                                                                                                                                                                                                                                  . o @ # # # # # # # 1 G R R R [ [ G G 9 # # # @ # # # # @ @ @ @ @ @ @ @ # # # # # # # # # X . . . . . .                                                                                                                                                       ",
"                                                                                                                                                                                                                                                                                                                                                                                                  . o @ @ # # # # # 1 l H P P R [ [ L B l > # # # @ @ # # # @ @ @ @ @ @ @ @ @ @ @ @ @ # # # # @ # # @ # @ . .                                                                                                                                                   ",
"                                                                                                                                                                                                                                                                                                                                                                                                  . o @ @ # # # ; 9 l S S G H L ` ` B B k ; # # # # # # @ @ @ @ @ @ @ @ @ @ @ @ @ @ @ @ @ @ @ # # # # # # @ X .                                                                                                                                                 ",
"                                                                                                                                                                                                                                                                                                                                                                                                  . o # @ @ # 1 k G G H H H G B K C B B h # # # # # # @ @ @ @ @ @ @ @ @ @ @ @ @ @ @ @ @ @ @ @ @ @ @ @ @ @ # @ X . .                                                                                                                                             ",
"                                                                                                                                                                                                                                                                                                                                                                                                  . X o @ : 9 S B B H H P P L L K C C B , @ # # # # @ # # # @ @ @ @ @ @ @ @ @ @ @ @ @ @ @ @ @ @ @ @ @ @ @ @ # @ X . .                                                                                                                                           ",
"                                                                                                                                                                                                                                                                                                                                                                                                . . . * 0 S G G G L H L L L ` ` ` C V m : @ # # # @ # # # # # @ @ @ @ @ @ @ @ @ @ @ @ @ @ @ @ @ @ @ @ @ @ @ # # # o . .                                                                                                                                         ",
"                                                                                                                                                                                                                                                                                                                                                                                                . o 0 J J J J H H L L L ` ` ] ` ) ( N g - @ # # @ # # # # # # @ @ @ @ @ @ @ @ @ @ @ @ @ @ @ @ @ @ @ @ @ @ @ @ # # # @ X .                                                                                                                                       ",
"                                                                                                                                                                                                                                                                                                                                                                                              . o j ! U U U P P P P ` P ` ` ] ` ) C m h # # @ # # # # # # # # # @ @ @ @ @ @ @ @ @ @ @ @ @ @ @ @ @ @ @ @ @ @ @ # # # # @ X .                                                                                                                                     ",
"                                                                                                                                                                                                                                                                                                                                                                                            . . 9 W ! ~ ! ! ! [ R [ [ [ ] ` ` ) Z N g 9 # @ # # # # # # # # # # # @ @ @ @ @ @ @ @ @ @ @ @ @ @ @ @ @ @ @ @ @ @ @ # # # # @ X .                                                                                                                                   ",
"                                                                                                                                                                                                                                                                                                                                                                                            . % J W ! ~ ~ ! ! ..[ [ [ [ ] ` ` Z V b g , @ # # # # # # # # # # # # @ @ @ @ @ @ @ @ @ @ @ @ @ @ @ @ @ @ @ @ @ @ @ @ # # # # o .                                                                                                                                   ",
"                                                                                                                                                                                                                                                                                                                                                                                          . . w W ! ~ ~ ! ! ..[ [ } } ] ] ` ) C N b 5 # # # # # # # # # # # # # # # @ @ @ @ @ @ @ @ @ @ @ @ @ @ @ @ @ @ @ @ @ @ @ @ # # # o . .                                                                                                                                 ",
"                                                                                                                                                                                                                                                                                                                                                                                          . $ J W ~ ~ ~ X...+.+.[ } } { ` ) C V v 5 $ $ # # # # # # # # # # # # # # # @ @ @ @ @ @ @ @ @ @ @ @ @ @ @ @ @ @ @ @ @ @ @ @ # # # o . .                                                                                                                               ",
"                                                                                                                                                                                                                                                                                                                                                                                        . . 8 W ~ ~ ~ ~ X.+.+.+.} } [ ` ) C N b 5 # @ @ # # # # # # # # # # # # # # # # @ @ @ @ @ @ @ @ @ @ @ @ @ @ @ @ @ @ @ @ @ @ @ @ # # # o .                                                                                                                               ",
"                                                                                                                                                                                                                                                                                                                                                                                        . o S ~ ^ ^ ^ X.o.o.+.+.} { ` Z C N b d ; # @ @ # # # # # # # # # # # # # # # # @ @ @ @ @ @ @ @ @ @ @ @ @ @ @ @ @ @ @ @ @ @ @ @ @ # # @ . .                                                                                                                             ",
"                                                                                                                                                                                                                                                                                                                                                                                        . * W ~ ^ ^ X.o.o.+.+.[ } { ` C m b b 3 # # @ @ # # # # # # # # # # # # # # # # # @ @ @ @ @ @ @ @ @ @ @ @ @ @ @ @ @ @ @ @ @ @ @ @ @ # # @ . .                                                                                                                           ",
"                                                                                                                                                                                                                                                                                                                                                                                      . . 9 ~ ~ X.X.o.o.+.+.+.[ ] ` ( b g g 7 # # # @ @ # # # # # # # # # # # # # # # # # # @ @ @ @ @ @ @ @ @ @ @ @ @ @ @ @ @ @ @ @ @ @ @ @ @ # # @ . .                                                                                                                         ",
"                                                                                                                                                                                                                                                                                                                                                                                      . o D ~ ^ O.X.O.o.+.+.} [ ` ) V g p 5 # # # # # @ # # # # # # # # # # # # # # # # # # @ @ @ @ @ @ @ @ @ @ @ @ @ @ @ @ @ @ @ @ @ @ @ @ @ # # # @ . .                                                                                                                       ",
"                                                                                                                                                                                                                                                                                                                                                                                      . : Q ~ ^ O.o.O.o.+.} } { ) C N 9 ; # # # # # # @ # # # # # # # # # # # # # # # # # # # @ @ @ @ @ @ @ @ @ @ @ @ @ @ @ @ @ @ @ @ @ @ @ @ @ # # # @ . .                                                                                                                     ",
"                                                                                                                                                                                                                                                                                                                                                                                    . . q ~ ~ O.O.O.O.#.+.| } ] ) C g # # # # # # # # # # # # # # # # # # # # # # # # # # # # # @ @ @ @ @ @ @ @ @ @ @ @ @ @ @ @ @ @ @ @ @ @ @ @ @ # # # @ . .                                                                                                                   ",
"                                                                                                                                                                                                                                                                                                                                                                                    . o D ~ O.O.O.O.#.@.+.| } ` Z C d @ # # # # # # # # # # # # # # # # # # # # # # # # # # # # @ @ @ @ @ @ @ @ @ @ @ @ @ @ @ @ @ @ @ @ @ @ @ @ @ @ # # # @ . .                                                                                                                 ",
"                                                                                                                                                                                                                                                                                                                                                                                    . : Q ~ O.O.O.#.#.#.| | } ` C V d ; # # # # # # # # # # # # # # # # # # # # # # # # # # # # # @ @ @ @ @ @ @ @ @ @ @ @ @ @ @ @ @ @ @ @ @ @ @ @ @ @ # # # @ . .                                                                                                               ",
"                                                                                                                                                                                                                                                                                                                                                                                  . . w ~ ^ O.O.O.#.#.+.| } { ` Z N N 7 # # # # # # # # # # # # # # # # # # # # # # # # # # # # # # @ @ @ @ @ @ @ @ @ @ @ @ @ @ @ @ @ @ @ @ @ @ @ @ @ @ # # # @ . .                                                                                                             ",
"                                                                                                                                                                                                                                                                                                                                                                                  . + J ^ O.8.O.O.#.#.+.@.} { ` Z N m d : # # # # # # @ # # # # # # # # # # # # # # # # # # # # # # @ @ @ @ @ @ @ @ @ @ @ @ @ @ @ @ @ @ @ @ @ @ @ @ @ @ @ # # # @ . .                                                                                                           ",
"                                                                                                                                                                                                                                                                                                                                                                                  . 2 ~ ^ O.8.O.#.#.+.+.} } [ ` Z V b b 7 # # # # # # @ # # # # # # # # # # # # # # # # # # # # # # # @ @ @ @ @ @ @ @ @ @ @ @ @ @ @ @ @ @ @ @ @ @ @ @ @ @ @ # # @ o . .                                                                                                         ",
"                                                                                                                                                                                                                                                                                                                                                                                . X j ~ ^ 8.O.9.#.#.+.+.} [ ] ` Z B b b p 3 ; # # # # @ @ # # # # # # # # # # # # # # # # # # # # # # # @ @ @ @ @ @ @ @ @ @ @ @ @ @ @ @ @ @ @ @ @ @ @ @ @ @ @ # # @ X .                                                                                                         ",
"                                                                                                                                                                                                                                                                                                                                                                                . = W ~ 8.8.8.O.O.#.+.+.+.[ ' ` Z C K N h f d p 5 : # @ # # # # # # # # # # # # # # # # # # # # # # # # @ @ @ @ @ @ @ @ @ @ @ @ @ @ @ @ @ @ @ @ @ @ @ @ @ @ @ @ # # @ X .                                                                                                       ",
"                                                                                                                                                                                                                                                                                                                                                                              . . 0 ~ ~ O.O.O.O.#.#.$.+.} [ ] ` C C ` K b z v b b b 7 @ # # # # # # # # # # # # # # # # # # # # # # # # # @ @ @ @ @ @ @ @ @ @ @ @ @ @ @ @ @ @ @ @ @ @ @ @ @ @ @ # # # @ X .                                                                                                     ",
"                                                                                                                                                                                                                                                                                                                                                                              . O D ~ ^ O.8.O.O.O.#.$.+.} [ ` L C C ` ` C b x b b N i @ # # # # # # # # # # # # # # # # # # # # # # # # # @ @ @ @ @ @ @ @ @ @ @ @ @ @ @ @ @ @ @ @ @ @ @ @ @ @ @ # # # # @ o .                                                                                                   ",
"                                                                                                                                                                                                                                                                                                                                                                            . . 8 Q ~ ^ O.O.O.O.O.#.$.+.+.[ ` C B C ' ` Z N x b b N 6 @ # # # # # # # # # # # # # # # # # # # # # # # # # # @ @ @ @ @ @ @ @ @ @ @ @ @ @ @ # @ @ @ # # # # @ @ @ @ # # # # @ X .                                                                                                 ",
"                                                                                                                                                                                                                                                                                                                                                                            . O D ~ ^ ^ O.O.O.O.O.o.+.+.+.[ ' L C L ' ` L B b n n V 6 @ # # # # # # # # # # # # # # # # # # # # # # # # # # @ @ @ @ @ @ @ @ @ @ @ @ @ @ @ # # # # # # # # # # @ @ @ # # # # # o .                                                                                               ",
"                                                                                                                                                                                                                                                                                                                                                                            . 2 Q ~ ^ O.O.O.O.O.O.o.o.o...[ ' ` L ` ` ` ` C b x n n 7 @ # # # # # # # # # # # # # # # # # # # # # # # # # # @ @ @ @ @ @ @ @ @ @ @ @ @ @ @ # # # # # # # # # # # @ @ # # # # ; # o .                                                                                             ",
"                                                                                                                                                                                                                                                                                                                                                                          . o D Q ~ ^ ^ O.O.O.O.$.o.o.+...[ ` L K L ` ` ` C N b x x 6 @ # # # # # # # # # # # # # # # # # # # # # # # # # # # @ @ @ @ @ @ @ @ @ @ @ @ @ @ # # # # # # # # # # # @ @ @ # # # # ; @ . .                                                                                           ",
"                                                                                                                                                                                                                                                                                                                                                                          . = Q ~ ^ O.8.O.O.O.O.#.$.+.+.[ ' ` ` K C ` ` ` C V N v v 6 @ # # # # # # # # # # # # # # # # # # # # # # # # # # # @ @ @ @ @ @ @ @ @ @ @ @ @ @ # # # # # # # # # # # @ @ @ # # # # # # o . .                                                                                         ",
"                                                                                                                                                                                                                                                                                                                                                                          . 8 2.Q ^ 1.8.8.O.O.$.$.$.o.+.[ ' ` ` L K L ` ) ( C C b v 5 @ # # # # # # # # # # # # # # # # # # # # # # # # # # # @ @ @ @ @ @ @ @ @ @ @ @ @ # # @ @ @ @ @ @ @ @ @ @ @ @ @ # # # # # # # o .                                                                                         ",
"                                                                                                                                                                                                                                                                                                                                                                        . . w 2.~ ^ 1.8.8.O.O.$.o.o.+.+.[ ' ` ` L K C C Z C ( C N v 5 @ # # # # # # # # # # # # # # # # # # # # # # # # # # # # @ @ @ @ @ @ @ @ @ @ @ @ # @ @ @ @ @ @ @ @ @ @ @ @ @ @ @ # # # # # # ; @ .                                                                                       ",
"                                                                                                                                                                                                                                                                                                                                                                        . X D Q Q 8.8.8.8.O.X.X.X.+.+.+.[ [ ' ` ` K C C C C ) ) ( N 6 @ # # # # # # # # # # # # # # # # # # # # # # # # # # # # @ @ @ @ @ @ @ @ @ @ @ @ # @ @ @ @ @ @ @ @ @ @ @ @ @ @ @ # # # # # # ; @ .                                                                                       ",
"                                                                                                                                                                                                                                                                                                                                                                        . O F Q ~ 1.8.1.8.O.O.X.X.o.+.+.} [ ] ' ' L C C C C ( ) ) C 6 # @ # # # # # # # # # # # # # # # # # # # # # # # # # # # # @ @ @ @ @ @ @ @ @ @ @ # @ @ @ @ @ @ @ @ @ @ @ @ @ @ @ @ # # # # # # @ X .                                                                                     ",
"                                                                                                                                                                                                                                                                                                                                                                        . @ F Q Q ^ 1.1.1.O.O.X.o.+.+.} } } { ' ' ` L C C C C ( C C m 5 # # # # # # # # # # # # # # # # # # # # # # # # # # # # # @ @ @ @ @ @ @ @ @ @ @ # @ @ @ @ @ @ @ @ @ @ @ @ @ @ @ @ # # # # # # ; @ .                                                                                     ",
"                                                                                                                                                                                                                                                                                                                                                                        . $ F I Q ^ 1.1.8.8.O.O.o.$.+.+.} } { ` ` ` ` L C C C C C C C b 5 # # # # # # # # # # # # # # # # # # # # # # # # # # # # @ @ @ @ @ @ @ @ @ @ # # @ @ @ @ @ @ @ @ @ @ @ @ @ @ @ @ @ # # # # # # @ X .                                                                                   ",
"                                                                                                                                                                                                                                                                                                                                                                        . % F I Q ~ 1.1.8.O.O.O.o.$.$.+.+.} { ' ` ` ` L C C C ( C C C V b , # # # # # # # # # # # # # # # # # # # # # # # # # # # # @ @ @ @ @ @ @ @ @ # # # @ @ @ @ @ @ @ @ @ @ @ @ @ @ @ @ # # # # # # ; @ .                                                                                   ",
"                                                                                                                                                                                                                                                                                                                                                                        . % I Q Q ~ 1.8.8.O.O.O.#.$.$.+.+.} [ [ [ ] ` ` C C C ( ( ( C N b p : # # # # # # # # # # # # # # # # # # # # # # # # # # @ @ @ @ @ @ @ @ @ # # # # @ @ @ @ @ @ @ @ @ @ @ @ @ @ @ @ @ # # # # # # @ X .                                                                                 ",
"                                                                                                                                                                                                                                                                                                                                                                        . < Q Q Q ^ 1.8.8.O.O.O.#.#.$.+.+.+.} } { { ' ` Z C C C C C C N b h > # # # # # # # # # # # # # # # # # # # # # # # # # @ @ # @ @ @ @ @ @ @ @ # # # @ @ @ @ @ @ @ @ @ @ @ @ @ @ @ # @ @ # # # # # ; @ .                                                                                 ",
"                                                                                                                                                                                                                                                                                                                                                                        . 2 Q Q Q 1.1.8.8.8.8.O.#.#.$.+.+.@.@.} } { ] ] ` Z C C C C C V b h 1 % # # # # # # # # # # # # # # # # # # # # # # # @ @ $ # # @ @ @ @ @ @ @ # # # @ @ @ @ @ # # # @ @ @ @ @ @ @ # # @ # # # # # # @ . .                                                                               ",
"                                                                                                                                                                                                                                                                                                                                                                        . 9 Q I Q ^ 1.8.8.8.O.O.O.o.$.+.@.@.@.@.} } { { ` ) C C C V ( V b s 4 - # # # # # # # # # # # # # # # # # # # # # @ @ @ # # # # @ @ @ @ @ @ @ @ # # @ @ @ @ @ @ @ # @ @ @ @ @ @ @ # # # # # # # # # ; @ .                                                                               ",
"                                                                                                                                                                                                                                                                                                                                                                      . . 0 Q Q Q ~ ^ 8.8.8.O.O.O.#.#.#.#.@.@.@.| } { { ' ` Z C C ( V V v a 4 > % # # # # # # # # # # # # # # # # # # # @ @ @ # # # # # @ @ @ @ @ @ @ @ # # @ @ @ @ @ @ @ @ @ @ @ @ @ @ @ @ # # # # # # @ # # @ . .                                                                             ",
"                                                                                                                                                                                                                                                                                                                                                                      . . j Q Q Q ^ 1.8.8.8.8.O.O.O.#.#.#.#.@.@.| } } { { ` ) C C C N n g a 7 : % # # # # # # # # # # # # # # # # # # @ @ @ # # # # # # # @ @ @ @ @ @ @ # # # @ @ @ @ @ @ @ @ @ @ @ @ @ @ @ # # # # @ # # @ # ; @ .                                                                             ",
"                                                                                                                                                                                                                                                                                                                                                                      . X Y Q Q Q Q 2.8.8.8.8.8.O.O.#.$.@.$.+.@.+.| } ] ] ` ) C C C V n z p 6 , - % # # # # # # # # # # # # # # # @ @ @ @ # @ # # # # # # @ @ @ @ @ @ @ @ # # @ # # # @ @ @ @ @ @ @ @ @ @ @ @ # # # # # # # @ # @ X                                                                             ",
"                                                                                                                                                                                                                                                                                                                                                                      . X Y Q Q Q ~ ^ 8.8.8.8.8.8.#.O.$.$.@.@.@.@.| } } ] ` ) Z C V V c v f i 3 : % # # # # # # # # # # # # # # @ @ @ @ @ @ # # # # # # # @ @ @ @ @ @ @ @ # # @ # # # # @ @ @ @ @ @ @ @ @ @ @ # # # # @ # # @ @ ; # .                                                                           ",
"                                                                                                                                                                                                                                                                                                                                                                      . o D Q Q ~ 2.1.8.8.8.9.O.8.9.#.$.$.+.+.+.+.@.| { { ] ) Z C V V c c z a 6 , : * # # # # # # # # # # # # @ @ @ @ @ @ @ # # # # # # # @ @ @ @ @ @ @ @ # # @ @ # @ @ @ @ @ @ @ @ @ @ @ @ @ # # # # @ # @ @ @ ; # .                                                                           ",
"                                                                                                                                                                                                                                                                                                                                                                      . o D Q Q ~ 2.1.1.8.8.9.8.O.O.O.#.$.+.+.+.@.| | { { ] ) Z Z V V V x v f p 6 3 : # # # # # # # # # # # # @ @ @ @ @ @ @ # # # # # # # # @ @ @ @ @ @ @ @ # @ @ @ @ @ @ @ @ @ @ @ @ @ @ @ @ @ # # # # @ @ @ @ o . .                                                                           ",
"                                                                                                                                                                                                                                                                                                                                                                      . o D Q Q ~ ~ 1.8.8.8.9.8.8.O.O.o.$.$.+.@.@.| } } { ] ) ( C C V _ M c z f i i 5 ; # # # # # # # # # # # @ @ @ @ @ @ @ # # # # # # # # # @ @ @ @ @ @ @ # @ @ @ @ @ @ @ @ @ @ @ @ @ @ @ @ @ # # # # @ @ @ # o . .                                                                           ",
"                                                                                                                                                                                                                                                                                                                                                                      . o D Q Q ~ 2.1.1.8.8.9.8.8.8.O.O.O.#.#.@.@.| } { { ] ) ) Z C V _ M c z z f i i > # # # # # # # # # # # @ @ @ @ @ @ @ # # # # # # # # # @ @ @ @ @ @ @ @ @ @ @ @ @ @ @ @ @ @ @ @ @ @ @ @ @ # # # # @ @ @ @ o . .                                                                           ",
"                                                                                                                                                                                                                                                                                                                                                                      . . Y Q Q ~ ^ 1.1.8.9.8.8.8.O.O.#.#.#.+.+.+.| } { ] ] ) ) Z C C V c v z a a i 6 , ; # # # # # # # # # # @ @ @ @ @ @ @ # # # # # # # ; # @ @ @ @ @ @ @ @ @ @ @ @ @ @ @ @ @ @ @ @ @ @ @ @ @ # # # # # @ @ @ o .                                                                             ",
"                                                                                                                                                                                                                                                                                                                                                                      . . j Q Q Q ~ 1.8.8.8.8.8.8.8.O.#.#.#.+.@.@.| } { { { ) ) ) C C V x v f a i 6 3 > : # # # # # # # # # # @ @ @ @ @ @ @ # # # # # # ; ; # # @ @ @ @ @ @ @ @ @ @ @ @ @ @ @ @ @ @ @ @ @ @ @ @ # # # # # @ @ @ o .                                                                             "
};
