/* XPM */
static char *_ffcd08fc96045aeb83098762d6aa0b5NM2j6pG6ey7SR4Ou[] = {
/* columns rows colors chars-per-pixel */
"320 180 192 2 ",
"   c None",
".  c #010101",
"X  c #080706",
"o  c #0C0C0B",
"O  c #120F0D",
"+  c #15110F",
"@  c #0E1012",
"#  c #151515",
"$  c #1B1613",
"%  c #171817",
"&  c #1B1816",
"*  c #151618",
"=  c #171919",
"-  c #1A1A1A",
";  c #221D1D",
":  c #2C1E1F",
">  c #25201E",
",  c #28201C",
"<  c #0F1724",
"1  c #0F1825",
"2  c #111725",
"3  c #131A26",
"4  c #191C26",
"5  c #151C2A",
"6  c #1A1E2A",
"7  c #241E20",
"8  c #291F21",
"9  c #17212D",
"0  c #1D212C",
"q  c #172231",
"w  c #1C2332",
"e  c #222222",
"r  c #2B2324",
"t  c #2E2A27",
"y  c #22252C",
"u  c #2D2629",
"i  c #25282D",
"p  c #2B292C",
"a  c #302425",
"s  c #332923",
"d  c #32272A",
"f  c #332B2E",
"g  c #392E2A",
"h  c #35312D",
"j  c #3C332D",
"k  c #222733",
"l  c #252931",
"z  c #2C2B32",
"x  c #242D3B",
"c  c #292E3D",
"v  c #342D32",
"b  c #3A2F35",
"n  c #2F3031",
"m  c #29303D",
"M  c #343134",
"N  c #3B3335",
"B  c #35333B",
"V  c #3A353B",
"C  c #3D393D",
"Z  c #42352E",
"A  c #473B33",
"S  c #4B3D35",
"D  c #40353B",
"F  c #433A3C",
"G  c #4B3E3C",
"H  c #4B4037",
"J  c #4E423B",
"K  c #53443B",
"L  c #5A4A3F",
"P  c #2D3645",
"I  c #333744",
"U  c #3A3741",
"Y  c #373943",
"T  c #3C3B44",
"R  c #323A48",
"E  c #3D3D4B",
"W  c #433D43",
"Q  c #483F45",
"!  c #433F4A",
"~  c #3D4452",
"^  c #444145",
"/  c #4C4143",
"(  c #43434D",
")  c #49444D",
"_  c #4C494F",
"`  c #544642",
"'  c #514943",
"]  c #5B4B42",
"[  c #534A4D",
"{  c #5C4D4B",
"}  c #5E514A",
"|  c #434553",
" . c #4C4751",
".. c #454A54",
"X. c #4D4C54",
"o. c #464D5A",
"O. c #4A4E5A",
"+. c #524D53",
"@. c #594F55",
"#. c #514E59",
"$. c #4D5055",
"%. c #47515C",
"&. c #4B515C",
"*. c #545156",
"=. c #5C5355",
"-. c #55535B",
";. c #5B555C",
":. c #55585F",
">. c #5C595E",
",. c #614E45",
"<. c #645246",
"1. c #685347",
"2. c #64534C",
"3. c #6B554A",
"4. c #6D594D",
"5. c #735A4E",
"6. c #635553",
"7. c #645954",
"8. c #6D5C54",
"9. c #60575C",
"0. c #635B5D",
"q. c #695E5C",
"w. c #735E53",
"e. c #7B5F51",
"r. c #725F59",
"t. c #6B605A",
"y. c #6B6158",
"u. c #6C6159",
"i. c #6A615F",
"p. c #6C615D",
"a. c #6C615E",
"s. c #766257",
"d. c #766155",
"f. c #786357",
"g. c #7C6255",
"h. c #76625A",
"j. c #77655B",
"k. c #72625E",
"l. c #74635D",
"z. c #78635B",
"x. c #78645B",
"c. c #79665E",
"v. c #7D665A",
"b. c #7E695E",
"n. c #4E5861",
"m. c #535560",
"M. c #5B5660",
"N. c #545A64",
"B. c #5B5860",
"V. c #5C5B60",
"C. c #5E5D62",
"Z. c #5C5C63",
"A. c #545C68",
"S. c #5F5F68",
"D. c #625B60",
"F. c #615E63",
"G. c #665E60",
"H. c #645F63",
"J. c #655E61",
"K. c #635D63",
"L. c #685F64",
"P. c #5F6167",
"I. c #5F6169",
"U. c #656063",
"Y. c #636066",
"T. c #666265",
"R. c #646166",
"E. c #6A6262",
"W. c #696163",
"Q. c #6D6261",
"!. c #696265",
"~. c #6F6364",
"^. c #6B6465",
"/. c #6B6366",
"(. c #656369",
"). c #6B6568",
"_. c #6C6568",
"`. c #6B666A",
"'. c #6D686C",
"]. c #716363",
"[. c #736665",
"{. c #7A6764",
"}. c #766967",
"|. c #7D6B64",
" X c #726769",
".X c #786768",
"XX c #746A6A",
"oX c #7A6B69",
"OX c #81675A",
"+X c #806A5E",
"@X c #806D62",
"#X c #807064",
/* pixels */
"                                                                                                                                                                                                                                                                                                                                                                                                                                                                                                                                                                                                                                                                ",
"                                                                                                                                                                                                                                                                                                                                                                                                                                                                                                                                                                                                                                                                ",
"                                                                                                                                                                                                                                                                                                                                                                                                                                                                                                                                                                                                                                                                ",
"                                                                                                                                                                                                                                                                                                                                                                                                                                                                                                                                                                                                                                                                ",
"                                                                                                                                                                                                                                                                                                                                                                                                                                                                                                                                                                                                                                                                ",
"                                                                                                                                                                                                                                                                                                                                                                                                                                                                                                                                                                                                                                                                ",
"                                                                                                                                                                                                                                                                                                                                                                                                                                                                                                                                                                                                                                                                ",
"                                                                                                                                                                                                                                                                                                                                                                                                                                                                                                                                                                                                                                                                ",
"                                                                                                                                                                                                                                                                                                                                                                                                                                                                                                                                                                                                                                                                ",
"                                                                                                                                                                                                                                                                                                                                                                                                                                                                                                                                                                                                                                                                ",
"                                                                                                                                                                                                                                                                                                                                                                                                                                                                                                                                                                                                                                                                ",
"                                                                                                                                                                                                                                                                                                                                                                                                                                                                                                                                                                                                                                                                ",
"                                                                                                                                                                                                                                                                                                                                                                                                                                                                                                                                                                                                                                                                ",
"                                                                                                                                                                                                                                                                                                                                                                                                                                                                                                                                                                                                                                                                ",
"                                                                                                                                                                                                                                                                                                                                                                                                                                                                                                                                                                                                                                                                ",
"                                                                                                                                                                                                                                                                                                                                                                                                                                                                                                                                                                                                                                                                ",
"                                                                                                                                                                                                                                                                                                                                                                                                                                                                                                                                                                                                                                                                ",
"                                                                                                                                                                                                                                                                                                                                                                                                                                                                                                                                                                                                                                                                ",
"                                                                                                                                                                                                                                                                                                                                                                                                                                                                                                                                                                                                                                                                ",
"                                                                                                                                                                                                                                                                                                                                                                                                                                                                                                                                                                                                                                                                ",
"                                                                                                                                                                                                                                                                                                                                                                                                                                                                                                                                                                                                                                                                ",
"                                                                                                                                                                                                                                                                                                                                                                                                                                                                                                                                                                                                                                                                ",
"                                                                                                                                                                                                                                                                                                                                                                                                                                                                                                                                                                                                                                                                ",
"                                                                                                                                                                                                                                                                                                                                                                                                                                                                                                                                                                                                                                                                ",
"                                                                                                                                                                                                                                                                                                                                                                                                                                                                                                                                                                                                                                                                ",
"                                                                                                                                                                                                                                                                                                                                                                                                                                                                                                                                                                                                                                                                ",
"                                                                                                                                                                                                                                                                                                                                                                                                                                                                                                                                                                                                                                                                ",
"                                                                                                                                                                                                                                                                                                                                                                                                                                                                                                                                                                                                                                                                ",
"                                                                                                                                                                                                                                                                                                                                                                                                                                                                                                                                                                                                                                                                ",
"                                                                                                                                                                                                                                                                                                                                                                                                                                                                                                                                                                                                                                                                ",
"                                                                                                                                                                                                                                                                                                                                                                                                                                                                                                                                                                                                                                                                ",
"                                                                                                                                                                                                                                                                                                                                                                                                                                                                                                                                                                                                                                                                ",
"                                                                                                                                                                                                                                                                                                                                                                                                                                                                                                                                                                                                                                                                ",
"                                                                                                                                                                                                                                                                                                                                                                                                                                                                                                                                                                                                                                                                ",
"                                                                                                                                                                                                                                                                                                                                                                                                                                                                                                                                                                                                                                                                ",
"                                                                                                                                                                                                                                                                                                                                                                                                                                                                                                                                                                                                                                                                ",
"                                                                                                                                                                                                                                                                                                                                                                                                                                                                                                                                                                                                                                                                ",
"                                                                                                                                                                                                                                                                                                                                                                                                                                                                                                                                                                                                                                                                ",
"                                                                                                                                                                                                                                                                                                                                                                                                                                                                                                                                                                                                                                                                ",
"                                                                                                                                                                                                                                                                                                                                                                                                                                                                                                                                                                                                                                                                ",
"                                                                                                                                                                                                                                                                                                                                                                                                                                                                                                                                                                                                                                                                ",
"                                                                                                                                                                                                                                                                                                                                                                                                                                                                                                                                                                                                                                                                ",
"                                                                                                                                                                                                                                                                                                                                                                                                                                                                                                                                                                                                                                                                ",
"                                                                                                                                                                                                                                                                                                                                                                                                                                                                                                                                                                                                                                                                ",
"                                                                                                                                                                                                                                                                                                                                                                                                                                                                                                                                                                                                                                                                ",
"                                                                                                                                                                                                                                                                                                                                                                                                                                                                                                                                                                                                                                                                ",
"                                                                                                                                                                                                                                                                                                                                                                                                                                                                                                                                                                                                                                                                ",
"                                                                                                                                                                                                                                                                                                                                                                                                                                                                                                                                                                                                                                                                ",
"                                                                                                                                                                                                                                                                                                                                                                                                                                                                                                                                                                                                                                                                ",
"                                                                                                                                                                                                                                                                                                                                                                                                                                                                                                                                                                                                                                                                ",
"                                                                                                                                                                                                                                                                                                                                                                                                                                                                                                                                                                                                                                                                ",
"                                                                                                                                                                                                                                                                                                                                                                                                                                                                                                                                                                                                                                                                ",
"                                                                                                                                                                                                                                                                                                                                                                                                                                                                                                                                                                                                                                                                ",
"                                                                                                                                                                                                                                                                                                                                                                                                                                                                                                                                                                                                                                                                ",
"                                                                                                                                                                                                                                                                                                                                                                                                                                                                                                                                                                                                                                                                ",
"                                                                                                                                                                                                                                                                                                                                                                                                                                                                                                                                                                                                                                                                ",
"                                                                                                                                                                                                                                                                                                                                                                                                                                                                                                                                                                                                                                                                ",
"                                                                                                                                                                                                                                                                                                                                                                                                                                                                                                                                                                                                                                                                ",
"                                                                                                                                                                                                                                                                                                                                                                                                                                                                                                                                                                                                                                                                ",
"                                                                                                                                                                                                                                                                                                                                                                                                                                                                                                                                                                                                                                                                ",
"                                                                                                                                                                                                                                                                                                                                                                                                                                                                                                                                                                                                                                                                ",
"                                                                                                                                                                                                                                                                                                                                                                                                                                                                                                                                                                                                                                                                ",
"                                                                                                                                                                                                                                                                                                                                                                                                                                                                                                                                                                                                                                                                ",
"                                                                                                                                                                                                                                                                                                                                                                                                                                                                                                                                                                                                                                                                ",
"                                                                                                                                                                                                                                                                                                                                                                                                                                                                                                                                                                                                                                                                ",
"                                                                                                                                                                                                                                                                                                                                                                                                                                                                                                                                                                                                                                                                ",
"                                                                                                                                                                                                                                                                                                                                                                                                                                                                                                                                                                                                                                                                ",
"                                                                                                                                                                                                                                                                                                                                                                                                                                                                                                                                                                                                                                                                ",
"                                                                                                                                                                                                                                                                                                                                                                                                                                                                                                                                                                                                                                                                ",
"                                                                                                                                                                                                                                                                                                                                                                                                                                                                                                                                                                                                                                                                ",
"                                                                                                                                                                                                                                                                                                                                                                                                                                                                                                                                                                                                                                                                ",
"                                                                                                                                                                                                                                                                                                                                                                                      . . . . . . . .                                                                                                                                                                                                                                                           ",
"                                                                                                                                                                                                                                                                                                                                                                                  . . o o # - o o o . . .                                                                                                                                                                                                                                                       ",
"                                                                                                                                                                                                                                                                                                                                                                                X # - - - - # - - - - - o . .                                                                                                                                                                                                                                                   ",
"                                                                                                                                                                                                                                                                                                                                                                              . # - - - - - - - # # # - e - o .                                                                                                                                                                                                                                                 ",
"                                                                                                                                                                                                                                                                                                                                                                            . # - - - - - - % - # # # - - - - o .                                                                                                                                                                                                                                               ",
"                                                                                                                                                                                                                                                                                                                                                                            . o - - - - - - - - # # # - - - - # X .                                                                                                                                                                                                                                             ",
"                                                                                                                                                                                                                                                                                                                                                                            # - - - - - - - - - # # # - - - - - # . .                                                                                                                                                                                                                                           ",
"                                                                                                                                                                                                                                                                                                                                                                            o - # - - - - - - - # # # - - - - - - # . .                                                                                                                                                                                                                                         ",
"                                                                                                                                                                                                                                                                                                                                                                            . o # - - - - - - - - - - - - - - - e # . . .                                                                                                                                                                                                                                       ",
"                                                                                                                                                                                                                                                                                                                                                                            . X # - - - - - - # # # # # - - - - - - # X . .                                                                                                                                                                                                                                     ",
"                                                                                                                                                                                                                                                                                                                                                                              . o # - - - - - # # # # - - - - - - - - - # X .                                                                                                                                                                                                                                   ",
"                                                                                                                                                                                                                                                                                                                                                                              . . o - - - # - - - - - - - - - - - - - - - # X .                                                                                                                                                                                                                                 ",
"                                                                                                                                                                                                                                                                                                                                                                              . . . # # # - - - - # - - - - - - - - - - - - o .                                                                                                                                                                                                                                 ",
"                                                                                                                                                                                                                                                                                                                                                                              . . . o # - - - - - - # # # # - - - - - - - - - o .                                                                                                                                                                                                                               ",
"                                                                                                                                                                                                                                                                                                                                                                              . . # - - - - - - - - # # # # # - - - - - - - - # . .                                                                                                                                                                                                                             ",
"                                                                                                                                                                                                                                                                                                                                                                              . # - - - - - - - - - - # # # # # - - - - - - - # . .                                                                                                                                                                                                                             ",
"                                                                                                                                                                                                                                                                                                                                                                              X # - - # # - - - - - - - # # # # # - - - - - - - # . .                                                                                                                                                                                                                           ",
"                                                                                                                                                                                                                                                                                                                                                                              - - - - # # - - - - - - - - # # # # # - - - - - - - o . .                                                                                                                                                                                                                         ",
"                                                                                                                                                                                                                                                                                                                                                                              o # - - - # - - - - - - - - # # # # # - - - - - - - - o . .                                                                                                                                                                                                                       ",
"                                                                                                                                                                                                                                                                                                                                                                              . # - - - - - - - - - - - - - # # # # # - - - - - - - - o . .                                                                                                                                                                                                                     ",
"                                                                                                                                                                                                                                                                                                                                                                              . o - - - - - - - - - - - - - - # # # # # - - - - - - - - o .                                                                                                                                                                                                                     ",
"                                                                                                                                                                                                                                                                                                                                                                              . X # - - - - - - - - - - - - - # # # # # # - - - - - - - - o .                                                                                                                                                                                                                   ",
"                                                                                                                                                                                                                                                                                                                                                                                . o - - - - - - - - - - - - - - # # - - # # - - - - - - e # . .                                                                                                                                                                                                                 ",
"                                                                                                                                                                                                                                                                                                                                                                                . o - - - - # - - - - - - - - - - # # - # # # - - - - - - - # . .                                                                                                                                                                                                               ",
"                                                                                                                                                                                                                                                                                                                                                                                . . o - - # # % - - - - - - - - - # # - # # # - - - - - - - - # . .                                                                                                                                                                                                             ",
"                                                                                                                                                                                                                                                                                                                                                                                  . o # - - - - - - - - - - - - - - % % # # # # - - - - - - - - # . .                                                                                                                                                                                                           ",
"                                                                                                                                                                                                                                                                                                                                                                                  . # - - - - - # - - - - - - - - - - - # # # # # - - - - - - - e # . .                                                                                                                                                                                                         ",
"                                                                                                                                                                                                                                                                                                                                                                                  . # - - - - # # # - - - - - - - - - - # # # # # # - - - - - - - - o . .                                                                                                                                                                                                       ",
"                                                                                                                                                                                                                                                                                                                                                                                  . o # - - - - # # # - - - - - - - - - # # # # # # # - - - - - - - - o .                                                                                                                                                                                                       ",
"                                                                                                                                                                                                                                                                                                                                                                                  . . # - - - - # # # # - - - - - - - - - # # # # # # # - - - - - - - - o .                                                                                                                                                                                                     ",
"                                                                                                                                                                                                                                                                                                                                                                                  . . X # - - - - # # # - - - - - - - - - % # # # # # # - - - - - - - - - o .                                                                                                                                                                                                   ",
"                                                                                                                                                                                                                                                                                                                                                                                  . . o # - - - - - # # # - - - - - - - - - # # # # # # # - - - - - - - e # . .                                                                                                                                                                                                 ",
"                                                                                                                                                                                                                                                                                                                                                                                  . # - - - - - - - # # # # - - - - - - - - % # # # # # # # - - - - - - - - # . .                                                                                                                                                                                               ",
"                                                                                                                                                                                                                                                                                                                                                                                  . o - - - - - - - - # # # - - - - - - - - % % # # # # # # # - - - - - - - - # . .                                                                                                                                                                                             ",
"                                                                                                                                                                                                                                                                                                                                                                                  . o - - - - - - - - # # - > e - - - - - - - - # # # # # # # # - - # - - - - - # . .                                                                                                                                                                                           ",
"                                                                                                                                                                                                                                                                                                                                                                                . . o # - - - - - - - - t J } ] N - - - - - - - - # # # # # # # - - - - - - - - e # . .                                                                                                                                                                                         ",
"                                                                                                                                                                                                                                                                                                                                                                                . . o # - - - - - - - j 7.8.7.7.2.N - - - - - - - - # # # # # # # # - - - - - - - - X . .                                                                                                                                                                                       ",
"                                                                                                                                                                                                                                                                                                                                                                                . . o # - - - - - - h 7.u.t.p.q.6.{ e - - - % - - - - # # # # # # # - - - - - - - - % X . . . .                                                                                                                                                                                 ",
"                                                                                                                                                                                                                                                                                                                                                                              . o # - - - - - - - h 6.t.t.p.Q.E.6.6.F - - - - - - - - # # # # # # # - - - - - - - - - - X . . . . . .                                                                                                                                                                           ",
"                                                                                                                                                                                                                                                                                                                                                                              . o # # - - - - - h } 7.q.q.i.E.^.0.=.{ u - - - - - - - - # # # # # # # # # # # # # - - - - # - - # - # . .                                                                                                                                                                       ",
"                                                                                                                                                                                                                                                                                                                                                                              . o # # - - - e F } 2.2.6.7.0.J.J.=.=.[ e - - - - - - # # # # # # # # # # # # # # # # # # # - - - - - - # X .                                                                                                                                                                     ",
"                                                                                                                                                                                                                                                                                                                                                                              . o - # # - h ' 6.6.7.7.7.6.=.9.;.=.=./ - - - - - - # % # # # # # # # # # # # # # # # # # # # # # # # # - # X . .                                                                                                                                                                 ",
"                                                                                                                                                                                                                                                                                                                                                                              . X o # r G 2.=.=.7.7.q.q.0.0.9.;.=.=.f # - - - - # - - - # # # # # # # # # # # # # # # # # # # # # # # # - # X . .                                                                                                                                                               ",
"                                                                                                                                                                                                                                                                                                                                                                            . . . > J 2.6.6.6.0.0.q.q.q.J.J.D.;.;.@.u # - - - # - - - - - # # # # # # # # # # # # # # # # # # # # # # # - - - o . .                                                                                                                                                             ",
"                                                                                                                                                                                                                                                                                                                                                                            . o J 8.8.8.8.0.0.q.q.q.q.J.U.F.C.B.-.[ 7 # - - # - - - - - - # # # # # # # # # # # # # # # # # # # # # # # # - - - # X .                                                                                                                                                           ",
"                                                                                                                                                                                                                                                                                                                                                                          . o ] h.r.r.r.q.q.q.q.J.q.J.J.U.F.C.;.+./ - - # - - - - - - - - - # # # # # # # # # # # # # # # # # # # # # # # - - - - # X .                                                                                                                                                         ",
"                                                                                                                                                                                                                                                                                                                                                                        . . A s.h.z.h.k.k.Q.i.E.W.E.T.F.F.C.>.*.[ F - # - - - - - - - - - - - # # # # # # # # # # # # # # # # # # # # # # # - - - - # X .                                                                                                                                                       ",
"                                                                                                                                                                                                                                                                                                                                                                        . ; 8.s.j.x.z.k.k.].Q.^.W.T.T.F.F.>.-.+.[ f # - - - - - - - - - - - - # # # # # # # # # # # # # # # # # # # # # # # # - - - - o .                                                                                                                                                       ",
"                                                                                                                                                                                                                                                                                                                                                                      . . L f.j.c.c.l.k.].~._.`.).T.Y.F.V.;.*.+.M - - - - - - - - - - - - - - - # # # # # # # # # # # # # # # # # # # # # # # # - - - o . .                                                                                                                                                     ",
"                                                                                                                                                                                                                                                                                                                                                                      . $ 8.f.x.c.{.{.].[.[._.`.).(.F.V.>.;. .M # # - - - - - - - - - - - - - - - # # # # # # # # # # # # # # # # # # # # # # # # - - - o . .                                                                                                                                                   ",
"                                                                                                                                                                                                                                                                                                                                                                    . . Z s.x.c.c.{.{.[. X X`.).W.F.V.;.-.*.M - # # - - - - - - - - - - - - - - - - # # # # # # # # # # # # # # # # # # # # # # # # - - - o .                                                                                                                                                   ",
"                                                                                                                                                                                                                                                                                                                                                                    . o <.x.b.b.b.{.{.}.[.[.).T.F.>.;.-.+.^ e - # # - - - - - - - - - - - - - - - - # # # # # # # # # # # # # # # # # # # # # # # # # - - # . .                                                                                                                                                 ",
"                                                                                                                                                                                                                                                                                                                                                                    . > d.x.b.b.{.{.}.XX[._.W.T.V.-.+.+.+.M - - # # - - - - - - - - - - - - - - - - - # # # # # # # # # # # # # # # # # # # # # # # # # - - # . .                                                                                                                                               ",
"                                                                                                                                                                                                                                                                                                                                                                  . . S x.c.b.{.{.{.XXXX X).T.F.>.+._ _ V - - - # # - - - - - - - - - - - - - - - - - - # # # # # # # # # # # # # # # # # # # # # # # # # - - # . .                                                                                                                                             ",
"                                                                                                                                                                                                                                                                                                                                                                  . o 1.x.b.|.{.|.{.XX X`./.F.V.-._ Q M - - - - - # - - - - - - - - - - - - - - - - - - # # # # # # # # # # # # # # # # # # # # # # # # # - - - # . .                                                                                                                                           ",
"                                                                                                                                                                                                                                                                                                                                                                  . r f.x.b.|.|.|.}.XX`.).(.C.;.*.F e - - - - - - # - - - - - - - - - - - - - - - - - - - # # # # # # # # # # # # # # # # # # # # # # # # # - - - # . .                                                                                                                                         ",
"                                                                                                                                                                                                                                                                                                                                                                . . H x.v.|.|.{.oXXXXX'.).Y.V.;._ - - - - - - - - # - - - - - - - - - - - - - - - - - - - - # # # # # # # # # # # # # # # # # # # # # # # # # - - - # . .                                                                                                                                       ",
"                                                                                                                                                                                                                                                                                                                                                                . o 1.v.|.|.|.|.oXXXXX'.).F.>.;.^ # - - - - - - - - - - - - - - - - - - - - - - - - - - - - # # # # # # # # # # # # # # # # # # # # # # # # # # - - - # . .                                                                                                                                     ",
"                                                                                                                                                                                                                                                                                                                                                                . r f.v.|.|.|.oXXXXXXX'.).J.;.;.^ e - - - - - - - - - - - - - - - - - - - - - - - - - - - - # # # # # # # # # # # # # # # # # # # # # # # # # # # - - - # . .                                                                                                                                   ",
"                                                                                                                                                                                                                                                                                                                                                              . . K v.b.|.|.|.oXXXXX'.)./.J.>.*.*.V - - - - - - - - - - - - - - - - - - - - - - - - - - - - - - # # # # # # # # # # # # # # # # # # # # # # # # # # - - - # . .                                                                                                                                 ",
"                                                                                                                                                                                                                                                                                                                                                              . + 8.v.|.@X|.|.oXXXXXXX`.(.F.>.*.+.^ e - - - - - - - - - - - - - - - - - - - - - - - - - - - - - # # # # # # # # # # # # # # # # # # # # # # # # # # # - - - # . .                                                                                                                               ",
"                                                                                                                                                                                                                                                                                                                                                              . g v.b.|.@X|.oXoXXXXX`.).W.J.>.;.+.+.V - - - - - - # - - - - - - - - - - - - - - - - - - - - - - - # # # # # # # # # # # # # # # # # # # # # # # # # # # - - # o . .                                                                                                                             ",
"                                                                                                                                                                                                                                                                                                                                                            . X ] v.b.@X|.oXoXoXXXXX`.^.T.D.>.=.+.+.W v e - - - - # # - - - - - - - - - - - - - - - - - - - - - - - # # # # # # # # # # # # # # # # # # # # # # # # # # # - - # X .                                                                                                                             ",
"                                                                                                                                                                                                                                                                                                                                                            . , s.v.@X@X@X|.|.oXXXXX XW.L.F.>.;.9.+.) ( ^ W M e - # - - - - - - - - - - - - - - - - - - - - - - - - # # # # # # # # # # # # # # # # # # # # # # # # # # # # - - # X .                                                                                                                           ",
"                                                                                                                                                                                                                                                                                                                                                          . . K v.v.@X@X@X|.oXoXoXXX`.W.T.F.;.;.D.9.+.) _ +.+.+.V # - - - - - - - - - - - - - - - - - - - - - - - - - # # # # # # # # # # # # # # # # # # # # # # # # # # # - - - # X .                                                                                                                         ",
"                                                                                                                                                                                                                                                                                                                                                          . O 4.v.b.|.@X|.|.|.oXoXXX`.W.J.0.;.;.F.D.=.+.X.+.+.-.U # - - - - - - - - - - - - - - - - - - - - - - - - - # # # # # # # # # # # # # # # # # # # # # # # # # # # # - - - - o .                                                                                                                       ",
"                                                                                                                                                                                                                                                                                                                                                        . . Z f.x.b.|.|.|.|.|.oXoXXX XW.J.;.=.;.L.D.>.-.X.+.+.-.C # - - - - - - - - - - - - - - - - - - - - - - - - - - # # # # # # # # # # # # # # # - - # - - - - # - - # # - - - - # X .                                                                                                                     ",
"                                                                                                                                                                                                                                                                                                                                                        . O 3.z.v.b.|.|.|.|.|.{.XX X[.W.L.0.;.0.L.F.0.;.+.#.+.#.C # - - - - - - - - - - - - - - - - - - - - - - - - - - # # # # # # # # # # # # # # # - - - - - - - - - - - # # - - - - - o .                                                                                                                   ",
"                                                                                                                                                                                                                                                                                                                                                        . j f.x.v.|.|.|.|.|.|..X}.}. XW.L.D.9.D.J.F.D.;.+.X.#.#.V # - - - - - - - - - - - - - - - - - - - - - - - - - - # # # # # # # # # # # # # # # - - - - - - - - - - - # # - - - - e - o .                                                                                                                 ",
"                                                                                                                                                                                                                                                                                                                                                      . o <.f.v.b.+X|.|.|.|.oX{.}. X].W.J.0.9.9.F.F.D.;.-.+.X.X.B # - - - - - - - - - - - - - - - - - - - - - - - - - - - # # # # # # # # # # # # # # - - - - - - - - - - - # # - - - - - e # . .                                                                                                               ",
"                                                                                                                                                                                                                                                                                                                                                      . , g.v.v.|.@X|.|.|.|.oXoX X X~.L.J.D.0.;.D.F.D.B.;.*. . .B # - - - - - - - - - - - - - - - - - - - - - - - - - - - # # # # # # # # # # # # # # - - - - - - # - # - - # # # - - - - - - o . .                                                                                                             ",
"                                                                                                                                                                                                                                                                                                                                                      . Z OXg.OX+X+X@X|.|..X.X.X X[.~.L.J.D.0.9.0.D.V.B.;.;.+._ B # - - - - - - - - - - - - - - - - - - - - - - - - - - - - # # # # # # # # # # # # # # # # # # # # # # # # # # # - - - - - - - o .                                                                                                             ",
"                                                                                                                                                                                                                                                                                                                                                    . . K OXv.b.+X@X@X|.|..X.X}. X X~.L.J.J.D.9.;.;.;.;.B.;.-. .M # - - - - - - - - - - - - - - - - - - - - - - - - - - - - # # # # # # # # # # # # - # # # # # # # # # # # # # # # - - - - - - e # .                                                                                                           ",
"                                                                                                                                                                                                                                                                                                                                                    . X 1.OXOX@X@X@X@X|.|..X.X X X X`.W.L.J.J.9.;.;.;.;.V.V.M.;.B # - - - - - - - - - - - - - - - - - - - - - - - - - - - - # # # # # # # # # # # # - # # # # # # # # # # # # # # # - - - - - - e # .                                                                                                           ",
"                                                                                                                                                                                                                                                                                                                                                    . O 5.OXv.+X@X+X+X|.|..X.X}. X X`./.T.L.L.0.;.=.;.;.B.Z.V.;.C - # - - - - - - - - - - - - - - - - - - - - - - - - - - - - # # # # # # # # # # # - # # # # # # # # # # # # # # # # - - - - - - # X .                                                                                                         ",
"                                                                                                                                                                                                                                                                                                                                                    . $ 5.g.g.b.+X+X+X|.|.{.{.XXXX`.`._.(.L.L.D.0.;.;.B.M.M.;.;.+.v - - - - - - - - - - - - - - - - - - - - - - - - - - - - - # # # # # # # # # # # - # # # # # # # # # # # # # # # # - - - - - - e # .                                                                                                         ",
"                                                                                                                                                                                                                                                                                                                                                    . & 5.e.g.OXOX+X@X|.|.|.{.oXXX X`.`./.J.J.F.D.>.;.;.;.M.;.;.;.+.v - - - - - - - - - - - - - - - - - - - - - - - - - - - - # # # # # # # # # # - - # # # # # # # # # # # # # # # # # - - - - - - # X .                                                                                                       ",
"                                                                                                                                                                                                                                                                                                                                                    . ; 5.e.g.v.+X+X+X|.|.|.{.oXXXXXXX`./.L.J.L.J.0.;.;.M.B.;.;.;.;.+.f - - - - - - - - - - - - - - - - - - - - - - - - - - - - # # # # # # # # # - - - # # # # # # # # # # # # # # # # - - - - - - e # .                                                                                                       ",
"                                                                                                                                                                                                                                                                                                                                                    . ; e.g.g.v.+X+X@X|.|.|.oXoXoXXXXX`.`././.T.F.D.;.;.;.M.M.M.;.*.+.W e - - - - - - - - - - - - - - - - - - - - - - - - - - # # # # # # # # # - - - - # # # # # # # # # # # # # # # # # - - - - - - # X .                                                                                                     ",
"                                                                                                                                                                                                                                                                                                                                                    . s f.d.g.v.+X@X@X|.|.|.oXoXoXXXXX X`.`./.(.L.F.>.;.;.;.;.;.;.-.+./ u - - - - - - - - - - - - - - - - - - - - - - - - - # # # # # # # # # # # - - - # # # # # # # # # # # # # # - - # # # - - - - e # .                                                                                                     ",
"                                                                                                                                                                                                                                                                                                                                                    . g d.g.g.+X+X@X@X@X@X|.oXoXoXXXXXXXXX'.)./.T.Y.F.>.;.;.;.;.;.-.+./ g ; - - - - - - - - - - - - - - - - - - - - - - - # # - - - # # # # # # # - - - - # # # # # # # # # # # # # # - - - # # - - - - # X .                                                                                                   ",
"                                                                                                                                                                                                                                                                                                                                                    . A g.e.g.+X+X@X@X@X|.|.|.{.oXXXXXXXXX'.`.`.(.(.F.V.;.;.;.;.M.-.+.Q b 7 - - - - - - - - - - - - - - - - - - - - - # # # - - - - # # # # # # # # - - - # # # # # - - - # # # # # # # - - - # # - - - e # .                                                                                                   ",
"                                                                                                                                                                                                                                                                                                                                                  . . J g.g.g.OXb.@X@X@X|.|.|.|.oXoXXXXXXXXX'.`.(.(.L.F.>.;.;.M.-.-. .! N u ; - - - - - - - - - - - - - - - - - - - # # # - - - - - - # # # # # # # - - - # # # # # - - - # # # # # # # - - - - # # # - - # . .                                                                                                 ",
"                                                                                                                                                                                                                                                                                                                                                  . . ] f.g.g.OX+X@X@X@X@X|.|.|.oXoXoXXXXXXX'.`.).(.T.F.V.;.;.;.-.#. .! N a ; - - - - - - - - - - - - - - - - - - # # # - - - - - - - # # # # # # # - - - - # # # # # # # # # # # # # # - - - - # # # # - e # .                                                                                                 ",
"                                                                                                                                                                                                                                                                                                                                                  . X <.f.g.g.OXOX@X@X@X@X@X|.|.oXoXoXoXXXXXXX'.).T.T.F.V.;.;.;.-.#. .W C d 8 ; - - - - - - - - - - - - - - - # # # # # # - - - - - - # # # # # # # # - - - # # # # # # # # # # # # # # # - - - # # # # # - # X                                                                                                 ",
"                                                                                                                                                                                                                                                                                                                                                  . X <.f.g.g.OXb.@X@X@X@X@X|.|.|.{.oXoXXXXXXX'.).).(.F.C.>.;.-.-.O...( U v r ; - - - - - - - - - - - - - - # # # # # # - - - - - - - # # # # # # # # - # # # # - # # # # # # # # # # # # - - - - # # - # # e - .                                                                                               ",
"                                                                                                                                                                                                                                                                                                                                                  . o 1.f.g.v.OXb.@X@X@X@X|.|.oX|.oXoXoXXX XXXXX'.(.(.Y.C.>.;.-.-.&.O.| E C f r > - - - - - - - - - - - - # # # # # # # - - - - - - - - # # # # # # # - - # # # - # # # # # # # # # # # # - - - - % # # # # e - .                                                                                               ",
"                                                                                                                                                                                                                                                                                                                                                  . o <.f.f.v.v.+X+X@X@X@X@X|.|.|.{.XXXXXXXXXX'.'.(.(.Y.C.>.>.-.-.-.O...| ! V v u - - - - - - - - - - - - # # # # # # # - - - - - - - - # @ # # # # # # - # # # - - # # # # # # # # # # # % - - - - # # # # o . .                                                                                               ",
"                                                                                                                                                                                                                                                                                                                                                  . o 1.g.f.v.v.+X@X@X@X@X@X|.|.|.{.oXXXXXXXXX'.).(.(.Y.C.V.;.;.-.m.&.O.| ! E T M 7 - - - - - - - - - - - # # # # # # # - - - - - - - - # # # # # # # # - # # - - - # # # # # # # # # # # # - - - - # - # - o . .                                                                                               ",
"                                                                                                                                                                                                                                                                                                                                                  . o 1.g.g.v.OX+X+X@X@X@X@X@X|.|.|.|.oXXXXXXX`.).(.(.Y.Z.Z.B.>.-.m.%.o.| | | E U i - - - - - - - - - - - # # # # # # # - - - - - - - - - # # # # # # # # # # # # # # # # # # # # # # # # # - - - - # # # # o . .                                                                                               ",
"                                                                                                                                                                                                                                                                                                                                                  . . ,.g.f.v.b.+X+X@X#X@X@X@X|.|.|.oXoXXXXX'.`.`.(.Y.Y.Z.Z.>.;.;.-.O...| ! ! E C f e - - - - - - - - - - # # # # # # # - - - - - - - - - # # # # # # # # # # # # # # # # # # # # # # # # # - - - - - # # # o .                                                                                                 ",
"                                                                                                                                                                                                                                                                                                                                                  . . ] f.f.g.v.+X@X@X@X@X@X@X@X|.oXoXoXXXXXXX`.).(.(.Y.Z.Z.V.;.;.-.X.| ( ! T C v d r - - - - - - - - - - # # # # # # # - - - - - - e e - - # # # # # # # # # # # # # # # # # # # # # # # # - - - - - # # # o .                                                                                                 ",
"                                                                                                                                                                                                                                                                                                                                                  . . L f.f.g.v.b.@X@X@X@X@X|.|.|.oXoXoXXXXXXX'.'.(.Y.Y.Z.C.B.B.;.*.X.) ! T C B v a r ; - - - - - - - - - # # # # # # # - - - - - e e e - - # # # # # # # # # # # # # # # # # # # # # # # # # - - - - # # # o .                                                                                                 ",
"                                                                                                                                                                                                                                                                                                                                                  . . K f.d.g.v.v.+X+X@X#X@X@X|.|.oXoX}.XXXXXX'.(.(.Y.Y.F.Z.V.B.;.=.+._ Q W C N f a : ; - - - - - - - - - # # # # # # # - - - - - e e e 0 - # # # # # # # # # # # # # # # # # # # # # # # # # - - - - - # - o .                                                                                                 ",
"                                                                                                                                                                                                                                                                                                                                                  . . S d.w.f.g.v.b.+X@X@X@X|.|.|.oXoX}. X XXX`.).(.(.I.Z.Z.>.;.;.-.*.X.) W F V f a : 8 7 - - - - - - - - # # # # # # # - - - - - - e e e - # # # # # # # # # # # # # # # # # # # # # # # # # - - - - - # - o .                                                                                                 ",
"                                                                                                                                                                                                                                                                                                                                                  . . A w.w.5.4.s.v.b.b.|.|.|.|.|.oXoXXXXXXX'.`.).(.(.Y.F.Z.B.>.;.-.*.+._ Q W D v r r 7 7 - - - - - - - - # # # # # # # - - - - - - - - e - # # # # # # # # # # # # # # # # # # # # # # # # # - - - - - # # o .                                                                                                 ",
"                                                                                                                                                                                                                                                                                                                                                  . . j { ` K G ] 8.r.z.c.b.|.{.oXoX{.}. XXX'.`.(.(.(.Y.Z.Z.Z.V.;.-.*.#. .) W C b d r 8 e e - - - - - - - # # # # # # # - - - - - - - - e - # # # # # # # # # # # # # # # # # # # # # # # # # - - - - - # # o .                                                                                                 ",
"                                                                                                                                                                                                                                                                                                                                                  . . t N v p p M F / { 6.8.h.l.{.{.}.}.[. X`.).(.(.Y.I.P.Z.Z.B.;.*.+.X.+. .^ U V v u r 8 ; - - - - - - - # # # # # # # - - - - - - - - - - - # # # # # # # # # # # # # # # # # # # # # # # # # - - - - # - o .                                                                                                 ",
"                                                                                                                                                                                                                                                                                                                                                  . X p i l l i i i z z N F / { 7.q.p.Q.Q._.^.).(.(.Y.P.Z.Z.Z.B.-.-.+._  .X.) ( E U M v p u e - - - - - - # # # # # # # - - - - - - - - - e - # # # # # # # # # # # # # # # # # # # # # # # # # - - - - # - # .                                                                                                 ",
"                                                                                                                                                                                                                                                                                                                                                  . # z i y y 0 y y y y i i i z B Q [ ;.0.J.T.^.(.(.Y.I.P.Z.B.B.;.*.+._ ) ....| ..~ E T Y B y - - - - - - # # # # # # # - - - - - - - - e e - # # # # # # # # # # # # # # # # # # # # # # # # # - - - - # - # .                                                                                                 ",
"                                                                                                                                                                                                                                                                                                                                                . . - l y y e 0 6 0 0 0 y 0 0 y y y z B W _ ;.C.Y.Y.I.I.Z.Z.Z.B.-.-.*.*._ ( | ..o.o.o.....| Y e - - - - - # # # # # # # - - - - - - e e e e - # # # # # # # # # # # # # # # # # # # # # # # # # - - - - - - # .                                                                                                 ",
"                                                                                                                                                                                                                                                                                                                                                . X y y 0 y 0 0 6 6 6 6 6 6 0 6 6 0 0 w k c T O.m.Z.Z.Z.Z.Z.B.N.-.-.*.*.-.X.( ( ..o.o.o.o.o...z - - - - - # # # # # # # - - - - - - e e e e - # # # # # # # # # # # # # # # # # # # # # # # # # - - - - - - # .                                                                                                 ",
"                                                                                                                                                                                                                                                                                                                                                . o i y 0 0 0 w 6 6 6 6 4 4 6 6 6 6 6 6 9 9 w c E O.N.N.A.A.Z.N.:.-.*.*.-.-.X.( | ..o.%.%.o.o.T e - - - - # # # # # # # - - - - - - e e - e - - # # # # # # # # # # # # # # # # # # # # # # # # # - - - - e # .                                                                                                 ",
"                                                                                                                                                                                                                                                                                                                                              . . - l 0 0 0 6 6 6 4 6 5 6 4 5 4 5 6 5 5 5 6 6 6 w m ~ &.A.A.N.N.:.-.-.+.+.+.+.X.| ~ o.o.o.o.o.| p - - - - # # # # # # # - - - - - - e e - - - - # # # # # # # # # # # # # # # # # # # # # # # # # - - - - e - .                                                                                                 ",
"                                                                                                                                                                                                                                                                                                                                              . X y 0 0 6 6 6 5 4 5 5 4 5 5 5 4 6 5 5 5 5 5 5 6 6 9 w P o.n.m.m.-.-.-.+.X.+.+.+.X.....o.O.%.X.( - - - - - # # # # # # # - - - - - - e e - - - - # # # # # # # # # # # # # # # # # # # # # # # # # - - - - u - .                                                                                                 ",
"                                                                                                                                                                                                                                                                                                                                              . @ l 0 6 6 5 5 5 4 6 5 5 6 6 5 5 5 3 5 3 5 5 5 5 5 5 6 q x ~ &.m.m.-.-.-.+.+.X.+.+.X.X.o.O.O.$.n . o - - - # # # # # # # - - - - - - - e - - e - # # # # # # # # # # # # # # # # # # # # # # # # # - - - - e - .                                                                                                 ",
"                                                                                                                                                                                                                                                                                                                                            . . 4 0 9 9 5 5 5 5 5 4 5 6 6 5 5 5 5 5 5 3 3 2 3 5 5 3 5 5 5 w R %.-.-.-.+.+.*.*.X.X.+.$.X.X.X.$.% . o - - - # # # # # # # - - - - - - - e - - e - # # # # # # # # # # # # # # # # # # # # # # # # # - - - - u - .                                                                                                 ",
"                                                                                                                                                                                                                                                                                                                                            . o 0 9 6 6 5 5 5 5 5 6 5 5 5 5 3 3 2 2 5 1 3 2 < 2 3 1 5 5 5 3 q P O.-.-.X.*.*.-.*.+.+.+.+.+.$.) o . . o - - # # # # # # # - - - - - - - e - - e - # # # # # # # # # # # # # # # # # # # # # # # # # # - - - u - .                                                                                                 ",
"                                                                                                                                                                                                                                                                                                                                            . * k 9 6 4 3 5 5 5 5 5 3 5 5 5 1 3 2 2 5 2 2 2 < 1 1 5 1 3 5 5 5 q I X.$.X.+.*.*.-.*.+.+.+.*.*.C . . . o - - # # # # # # # - - - - - - - - - - e - # # # # # # # # # # # # # # # # # # # # # # # # # # - - - e - .                                                                       j                         "
};
